jakub-mar/robot40-collision-detector/data_4.csv
joint1,joint2,joint3,joint4,joint5,joint5,isCollision
-2.22505,-1.18468,1.19737,-0.692052,1.8128,2.34734,0
2.96823,-1.66219,1.17437,1.00911,2.83939,2.11792,0
-0.875493,-2.44412,2.97742,-1.78208,1.56024,-0.466984,1
0.78585,2.71497,0.270276,-1.49997,-2.70147,-1.42588,1
0.0782123,-0.374752,1.91626,-0.680109,-3.0032,1.08781,0
0.270803,-1.26128,2.45314,0.934427,1.26976,-2.81737,0
0.516141,2.88455,-2.75386,-0.140638,-1.36783,-2.74737,0
-1.39982,1.79953,-1.68287,-1.3903,-1.96754,-0.761844,1
1.89764,-1.73293,-0.290884,1.99323,-2.29568,-0.118443,1
0.346603,1.57393,-2.97773,-1.36051,2.6933,0.72717,0
-2.74918,0.0963173,-0.0790343,1.14321,-3.02238,2.122,1
-2.24259,2.87506,-2.68194,0.529325,2.97751,-0.539098,1
-2.22708,-1.88715,0.0656475,2.77629,-1.3818,2.82517,1
-2.2894,1.91584,-2.72151,-0.0308874,-2.11229,1.78089,0
1.55842,2.12059,1.11851,2.12924,0.504734,1.22157,1
-1.94027,-2.95362,3.10249,-0.770994,1.70501,-0.926782,1
-1.08909,1.5098,1.45938,-2.24087,-1.98116,2.26325,1
1.84501,-1.06059,-2.27775,-1.40641,1.82455,-0.425965,1
2.37458,2.43642,2.98946,1.1573,-1.19765,2.44533,0
-1.02088,0.613998,0.335099,2.69354,-2.42365,2.33063,1
-2.96797,-0.603816,0.250027,-1.52132,1.43472,-3.12208,0
-1.80778,2.4767,-2.70975,0.588254,0.482824,0.23951,0
-0.330626,-2.55792,1.34238,-2.08302,2.7831,2.40244,1
2.22744,3.07809,0.214415,-1.90976,-0.296569,-2.05103,0
-2.19715,2.21235,-0.403069,-0.950284,2.66141,1.81708,1
3.05035,-1.42862,-2.19224,-1.99984,0.425379,-0.652783,0
1.07231,-3.06726,-1.29388,0.100374,1.77871,1.83315,0
-1.19202,1.97697,0.765898,-1.95387,2.45007,-1.62153,0
-0.444542,0.490823,0.874636,2.54405,-0.195894,-0.332883,0
-1.54028,1.01852,-1.98503,2.96239,2.41826,0.0469775,0
1.36059,3.01078,0.755532,0.698494,1.20835,-1.21231,1
-1.14414,2.96372,2.70059,-2.86499,2.92457,2.42711,1
-1.17248,-1.35164,-2.30853,-1.67075,-0.9966,-0.387425,0
-2.24491,1.58106,-1.29974,-2.96199,-1.85199,2.22137,0
-0.145717,-1.80566,0.463173,2.39191,0.623669,1.61545,1
0.434407,-0.7229,-1.03486,-2.84764,0.437243,-2.34594,0
0.685173,-1.11576,0.682245,-2.50569,-2.1039,-0.258498,0
-0.343925,2.04155,2.93563,1.22839,0.308545,2.72789,0
0.243985,-0.391449,-0.033834,-2.12161,-2.66238,0.603976,1
-2.92963,-0.77002,2.04031,0.524479,1.01053,-0.202091,0
0.149379,-2.75088,2.15653,-1.71137,3.0793,2.3792,0
2.80612,-1.26533,-2.98935,2.84636,-2.17029,-1.91414,0
3.00412,0.319645,2.10046,2.59084,3.1075,0.918142,1
0.419485,2.58153,2.0447,-2.99897,-3.0035,-0.290485,0
1.69533,1.19433,1.65787,-3.11326,-0.627276,-1.85217,0
-1.74758,2.42344,2.77859,-1.49202,2.96147,-1.28507,1
1.83425,-0.420524,-1.9482,-2.57148,-1.49523,-2.91905,0
-0.722853,-2.89045,-2.68042,-0.745435,-1.79403,-1.84936,0
0.0528362,-1.52742,-2.10302,-1.02535,0.77953,-2.58055,0
1.66889,-1.07615,-0.57484,1.59148,-1.95461,-2.25165,0
2.23401,-0.654685,-2.66948,0.704436,-1.72202,-0.271358,0
1.27716,-2.25538,-0.647561,2.56379,-1.70211,1.37964,1
2.91747,1.86949,-1.70295,2.09918,-0.625184,0.121942,1
0.0713551,2.50778,-0.223576,-3.08304,0.593714,-2.37464,1
-1.03678,-0.817663,1.9348,1.03389,0.736874,1.07774,0
0.588037,-0.676965,-1.01984,0.181431,2.38394,0.389714,0
2.18065,-1.5806,2.91842,3.11293,-1.23077,2.53497,0
1.11553,-2.83056,1.9641,-0.869125,-2.78422,1.28616,1
-2.26305,-1.22959,-2.51064,2.94689,-2.06882,-2.32821,0
1.40945,-0.125917,-1.90272,2.85116,1.06845,0.578006,0
-0.82724,2.43648,2.53807,-0.193974,0.106658,1.62832,0
-2.33687,1.61854,-1.49686,-0.305203,-2.76325,-2.07337,0
0.0140899,1.10938,0.12716,-1.9956,-0.8365,-0.800558,1
-1.82667,1.02744,2.63611,-1.22967,-2.58398,0.363048,0
0.0632349,2.50688,1.03889,1.12966,0.153637,-0.995716,1
-1.82002,2.39644,2.94873,0.887927,1.24999,3.06506,0
2.02279,-2.43146,1.04206,2.08917,-2.58275,2.83548,1
2.19332,-2.44335,1.8341,1.13286,-1.86948,0.493828,0
-0.461068,2.37451,2.38155,1.68817,-0.902314,1.48771,0
-0.144962,1.92465,2.33291,1.73001,0.669761,0.461146,1
1.81713,2.17246,-2.23767,1.26422,1.39847,2.55171,1
0.236637,-1.39815,-2.14817,1.88749,-3.12151,-0.875592,1
0.157341,2.09132,1.21522,1.57834,0.919991,-0.7181,1
-2.34758,0.143298,1.07146,-2.6204,0.692781,-1.48575,0
2.35511,-3.11607,0.274229,2.77379,-2.37163,-2.15541,1
-0.746297,-1.22264,-2.69668,1.8217,-3.0727,-0.796898,0
1.44637,-0.196947,-0.979406,-0.0446658,-1.91614,3.06094,1
1.6957,-2.37247,2.45435,0.519669,-0.0871537,-2.23067,0
-0.71533,2.36139,2.73418,-2.71971,-2.91826,-2.17301,0
2.61896,-0.578769,1.50558,-0.311471,0.0833866,1.36932,0
2.7322,2.92386,-2.88593,0.817813,-2.72538,0.233917,0
1.31702,2.48976,-2.97874,0.353893,-1.75636,-3.09182,1
1.96293,-2.34042,-2.41408,-1.58432,-1.8893,-2.73496,1
-2.3274,0.505822,0.217772,0.0429265,-0.36082,2.69618,1
1.98447,1.44249,0.878779,-0.0557038,1.14294,0.664518,1
-2.4978,0.436672,0.756105,2.93253,-3.01211,-1.66197,1
0.468122,1.78139,0.915635,0.547226,2.11875,-0.773293,1
-1.14855,-2.23035,2.41961,-2.91618,-0.768396,0.251526,0
2.49441,0.710145,-2.49579,1.1851,1.752,0.078538,0
0.415015,-1.24355,-0.160601,-0.367633,-2.82857,2.21196,0
-1.12335,1.41214,-2.15119,-1.09354,-0.938375,2.09609,0
-2.6201,1.56131,1.87842,-1.35628,-1.99599,0.727113,1
-2.46811,1.07952,0.235792,-1.5919,2.71217,-1.79651,1
0.169195,-0.171341,2.92172,0.238685,-1.17715,2.36254,1
-2.76072,-0.4761,2.13693,1.61247,0.621898,-2.88727,1
0.339227,0.454057,0.546799,2.34493,-0.549803,2.30699,1
-0.447928,-0.37141,0.199318,-0.193337,-0.0934283,2.36964,0
2.58195,1.45744,1.41726,-0.745834,-2.19234,-2.97547,0
-3.11482,-2.30278,0.840693,1.87223,-0.706053,-2.06434,1
-0.0876564,-1.76469,-0.921152,-0.0952883,1.51368,1.0056,1
2.29707,-2.46769,-1.72071,-1.32017,-1.27478,-2.65494,0
1.07503,-0.870875,-1.46112,0.20946,-3.04841,1.34641,0
-2.2819,-1.6241,-0.0563637,-2.83501,1.53795,1.52545,0
-2.71731,-1.67213,-2.24077,1.81524,2.24214,-0.181335,0
1.67,1.23393,1.01526,2.08364,2.56916,2.87801,1
-0.659428,-0.186486,0.968879,0.597093,0.0230102,-0.360697,1
-2.41428,-0.248636,0.881962,-2.45621,2.27337,0.393529,0
1.79421,-0.403744,-2.88639,2.85029,1.5701,3.06577,0
1.6102,0.658669,-1.46935,0.194533,-2.07914,0.513569,1
-1.1151,2.99394,0.985094,-2.63524,1.08594,2.50199,1
2.16276,1.96791,1.01417,-1.79249,-3.11782,0.0302857,0
0.929419,-0.0909206,2.67075,1.72834,2.45693,-1.52612,1
-0.982289,-1.58131,1.34827,0.0558641,-0.935178,-2.80674,1
-0.25564,-0.168871,-2.01683,2.87605,-1.52411,-0.257831,0
-0.32829,0.468748,2.64427,2.33578,2.66985,-2.42051,0
0.957503,-1.1688,-2.09238,-2.55678,1.89409,1.20084,1
-0.0499771,-2.4671,0.692104,2.14013,1.44872,-1.75474,0
-2.50065,1.8165,2.76859,1.6048,-0.627857,2.21461,0
2.98127,-0.984915,2.13895,1.44959,-2.91763,0.319007,1
0.447663,0.846805,2.23659,0.150941,-3.02982,-1.91299,1
-1.19109,-1.90155,0.879728,-1.20203,0.143753,-2.29666,1
-2.06539,0.81854,1.40134,0.0116907,2.2988,-1.41166,0
-2.76903,-2.95531,-0.561934,-0.652112,0.614313,2.70507,1
-0.214251,0.48938,-1.58342,0.852992,1.05713,0.77465,0
-0.137529,2.27568,2.73517,-0.957229,0.086591,-0.419237,0
2.79441,-0.222094,-2.11166,1.77842,-1.69269,-1.64217,0
-0.226922,-1.54939,-3.08336,2.74358,-0.732556,2.87669,0
-0.623117,-2.93967,-0.142177,2.6112,1.92511,1.01844,1
-1.4702,2.50959,2.95828,1.36433,-1.62624,0.971974,1
1.23771,-0.790531,-0.606943,-0.338948,0.558837,-2.45902,1
-1.13771,2.93837,-3.0988,-2.01042,-1.6558,2.64868,0
-1.46171,1.6301,-1.82278,2.04564,2.69889,-1.61452,1
-2.86924,-2.22871,1.81246,-1.16597,-1.34412,-0.647924,1
-1.34538,-1.37614,-1.32437,0.581385,1.43074,0.560608,0
2.97015,2.59882,2.87747,2.06369,2.48459,-1.34118,0
2.46819,2.71373,0.508601,-2.318,0.152318,-2.64,1
0.69374,-0.849122,2.75158,-2.48504,0.563691,-0.632878,1
2.64041,2.42378,-1.96003,3.11192,-1.42268,-0.86347,0
3.07616,2.56736,-0.949945,-0.693439,-2.28161,-2.65188,1
-1.67112,2.80927,-0.821707,-2.74391,0.963129,-3.0056,0
-2.11492,2.67821,2.65733,1.79825,-2.40991,-1.75637,0
0.156811,0.414441,-2.41363,1.40948,-1.8558,1.32345,0
-1.0897,-2.08014,0.00833087,2.94981,1.13038,0.822303,1
1.11366,1.93224,-0.584823,1.03911,2.19123,-3.06434,0
-0.223572,-0.679125,-1.77977,1.06029,-0.165491,2.53054,1
1.71052,2.56395,1.36238,1.57043,-0.194007,2.75434,0
-1.93131,-1.38071,2.37673,1.44502,1.48184,1.38244,1
2.91529,1.9075,0.128063,0.157355,1.21164,-2.5533,1
2.62654,-2.56789,0.739731,-2.92877,-0.694319,1.42505,1
-2.35094,0.412417,1.46484,-2.01786,-2.6103,-1.93268,0
2.61279,1.46684,-0.71821,-2.04848,2.00462,0.541644,1
-2.57154,-1.74122,1.18321,2.69468,1.55016,-2.61143,1
0.670163,1.76841,1.97282,-1.0538,-1.26598,0.64716,0
-0.743621,-1.27147,-0.389557,2.76088,-0.820915,-0.183805,0
0.377656,-2.30478,-2.41988,-1.47736,2.70117,-2.39445,0
1.54178,1.33193,2.29546,2.01418,2.62753,2.62534,1
-0.506518,3.11697,-2.98255,-0.204758,1.76076,0.200143,1
3.07243,0.940683,-2.44754,-0.16951,1.56391,2.11417,1
0.772778,-0.241502,1.78733,-2.71194,0.901292,2.29035,1
-1.53008,-0.453528,-2.17631,-0.241078,0.473228,-0.0279089,0
1.35805,0.184925,2.31746,-1.00197,1.50438,0.67928,0
0.757776,0.869347,2.32785,0.106848,2.31917,-1.56073,1
-3.13524,-0.912395,2.88206,-2.72669,1.97343,3.04473,1
2.06345,2.82544,-2.60115,1.77477,-0.402275,-1.04515,1
-2.06422,-3.06372,-1.60746,-2.28178,2.3892,-2.77869,1
2.6553,-2.3218,0.193813,2.8796,1.40643,0.302,0
-1.14985,0.554463,-2.72775,-0.397112,-0.448925,2.30205,1
3.1087,-0.769988,2.49609,1.52334,-0.207353,-1.42896,0
0.491544,-2.46146,2.92863,0.894395,2.23028,1.55543,1
2.69547,-0.436883,2.42931,1.60694,-2.64058,1.04493,1
-1.71342,-3.10855,0.0230184,-0.589944,0.811254,0.885014,1
2.2355,2.65303,2.04053,0.235085,0.594992,-2.95711,0
0.206364,-0.933671,0.781132,-2.99304,3.13429,-0.348533,1
-1.686,1.06093,2.29804,-1.17316,-2.52828,-2.94975,0
2.00947,2.91567,-1.4041,-2.93653,2.39889,2.68187,1
1.34511,-2.25794,2.42704,1.20289,0.222291,-2.57402,1
-0.433018,0.887796,-0.565476,0.0936458,-2.4233,1.4681,0
-2.27055,-2.1429,-0.199666,2.65239,-1.63312,2.6261,0
-0.555242,1.19763,-1.66054,2.48869,0.814021,-2.61964,0
-2.32189,-0.856065,0.884951,-0.933823,0.711866,2.08823,0
-2.58779,2.26626,0.942477,2.58089,0.531573,-2.19105,0
0.376895,0.246086,1.6033,-0.648643,1.07625,0.749365,0
1.76206,1.11344,2.92117,-0.356575,0.0974872,0.794277,0
1.3343,-2.82744,-2.28973,-1.14583,-1.94029,-2.97641,1
2.97253,1.3703,-0.712527,-2.36474,0.339222,-2.10918,1
-0.527143,-1.31646,1.00369,2.11174,0.111844,-0.615074,1
-1.57609,-1.79796,-2.68608,0.220891,0.981178,2.26999,0
1.17241,-2.60111,1.45459,-0.234282,-0.281833,2.68672,0
-3.04766,0.49028,-2.85689,-0.280356,-2.9372,-0.30118,0
1.91132,2.0921,1.01465,0.573487,-0.330536,2.55349,1
-1.09549,2.37949,2.19952,1.0595,-2.40597,0.401656,1
2.32099,1.88181,2.19138,-2.30653,-2.41277,-3.0881,1
0.848575,-0.366745,-2.6342,0.698164,-1.47791,0.306458,1
2.10356,2.28969,2.88455,-0.648937,-2.2335,-2.41067,1
-0.75507,1.74408,-0.740793,-1.52057,1.60011,-1.09289,1
-2.51574,0.391161,0.412363,2.63523,-2.90053,1.61544,1
-0.742905,-1.65577,1.29086,0.32538,2.69044,1.12496,1
1.39218,-1.64093,1.17155,2.98123,2.8882,1.94006,1
1.71957,-2.81629,0.592791,-2.40167,-1.72729,1.62268,0
1.28524,2.26257,-2.80598,1.91095,3.10981,1.57937,1
-0.40288,0.245826,3.13931,-3.03975,-2.09599,2.68559,1
-2.94362,-0.281328,2.97038,-0.979666,2.60657,0.984728,1
1.47395,-0.781544,2.25114,-1.28891,-2.15595,1.05903,1
1.7819,-2.02203,-0.196806,-2.75419,0.788303,-1.29695,0
-3.06888,-1.42241,2.26102,-2.85569,-1.16424,-1.43944,1
3.01534,-0.912547,-1.48663,-0.242196,-2.55801,-1.94777,0
0.590646,-0.715245,-2.19649,2.62205,2.98634,0.0683769,0
2.97894,1.56338,2.56403,-1.48977,1.82714,-0.441083,0
0.932129,1.35267,1.40684,0.294258,1.4226,-2.88067,1
1.55811,-2.43956,-1.81593,1.41439,-2.90894,0.100904,1
-1.76045,2.81161,-2.96099,-2.04296,0.520362,0.326502,1
0.401913,-2.54322,-0.71125,1.83783,2.98544,0.505962,1
-2.35577,-0.0849344,-1.89914,0.126628,-2.8977,3.03261,1
-3.11745,-2.72145,1.40558,0.482666,1.49724,2.20532,0
-2.77836,-2.07763,-2.59542,-2.66467,0.84837,1.02571,0
0.25975,0.43721,2.21356,0.814643,2.55799,-2.53692,1
0.2807,1.93716,1.01034,-0.396516,-1.56193,-1.50938,1
-1.57201,2.26276,-2.5538,0.415743,2.18696,1.98108,0
-0.777195,1.59479,-3.11583,-0.409411,0.733922,0.534863,1
-2.14728,-1.60426,0.534755,2.8408,-0.253483,-1.23452,1
-1.97889,2.41094,-3.0497,-2.49707,-2.90943,0.890835,0
0.446774,-2.5634,-0.601318,2.01347,-1.21569,-2.42323,1
-2.80377,0.794471,1.8898,0.524144,-2.96443,2.70213,0
1.5474,-2.42966,2.04159,-1.61954,-0.0536735,-1.31482,1
-2.04568,1.11529,-1.27076,2.65375,0.955705,-0.848002,0
0.997775,-1.96825,-1.40005,0.942249,1.89591,-2.17999,1
-2.88315,-1.82168,0.726363,-2.97826,2.40889,1.4401,0
2.22085,-2.50033,-1.78805,0.9913,-0.488842,1.18799,0
2.30642,2.28087,-2.57789,-0.585072,-0.775066,0.974663,1
0.208811,-3.01296,1.63945,2.22408,-1.18796,-0.174554,1
-2.05849,2.13567,2.44346,-2.55556,-0.266683,1.01336,0
1.12118,-1.57508,-0.48198,0.361278,-3.02527,1.14306,0
1.99887,-2.82316,2.31982,-2.01521,1.47584,0.667709,0
-1.4654,-0.120301,-0.477729,0.764487,-0.870172,0.865345,1
-3.07807,-1.30036,-1.84114,-0.354409,-3.10706,2.93235,1
0.310444,-3.01849,-0.575382,-1.49295,0.03842,0.180486,0
0.122321,-0.510034,-1.29142,2.86821,-0.319,-0.409547,0
1.33121,2.10691,0.250776,0.579857,0.615893,-3.08693,0
-0.751961,2.59078,1.76593,0.623894,-1.77308,1.42705,1
-1.16583,-2.22193,-0.6568,0.147122,1.69102,2.45045,0
-0.396979,0.224005,-1.938,0.471988,-1.79962,-1.34641,0
1.60534,-1.39653,0.920185,1.15124,-1.02567,-0.489364,1
-3.09592,0.303164,-1.13855,-1.74909,-0.946181,-0.910194,0
2.19677,0.242739,-0.566647,2.51258,2.75547,1.48064,0
3.0749,-0.313903,-1.26393,0.667385,2.24503,0.878343,1
-2.7059,-1.86203,2.22294,2.39612,3.12352,-2.69289,0
-0.0899795,1.29536,0.616801,-0.062137,1.09855,-2.76101,1
-2.68379,-1.49548,1.501,1.13854,-0.923183,1.41639,0
-0.312941,0.301302,0.988916,-1.2627,-2.36441,2.26386,0
0.918448,-2.44722,-0.542908,-0.0936319,-1.28265,-0.135631,0
-1.50211,-0.552409,0.119138,1.55219,2.34784,0.431114,0
-2.3129,0.687011,2.35175,2.42253,1.26408,-2.69755,1
-0.493107,1.82378,1.08726,1.73686,-2.71784,-0.43866,1
-2.64842,-1.13493,-0.69199,1.84487,-2.76133,0.889131,1
-0.485093,2.32671,-0.508117,-2.4985,-1.26351,2.07269,1
-2.34407,-2.94059,-2.37569,-2.64039,-0.779513,-2.52548,0
-2.91264,-2.44158,2.977,1.75697,-1.56016,0.0295632,0
-2.6441,-0.681177,-2.36301,1.57638,-2.53091,1.34453,1
1.80668,-1.68782,3.04934,-2.70098,1.67874,1.52702,1
-2.62634,2.81557,2.25553,0.647081,1.97003,1.81277,1
2.05304,1.7005,0.80734,2.2601,2.48283,0.655339,0
-1.10238,-0.819004,-1.37772,2.01028,-0.733495,-2.37387,1
-2.04592,-0.0910835,0.539177,0.310019,-2.79997,-1.37592,1
-1.2798,2.82876,-0.666571,0.0322084,0.873524,0.683639,1
-2.59401,-0.221569,0.095617,-1.81517,2.84548,0.942716,0
-2.20456,-1.81751,-0.495493,-2.12662,1.25409,1.43258,0
1.73106,2.97606,-0.529795,-1.81569,-1.63487,2.54481,0
-3.05557,-1.38318,1.44565,2.48872,-2.07804,-1.22041,1
-3.04072,2.59382,-0.329609,1.68021,-1.73975,-2.12618,0
-0.77271,-1.46046,0.424876,0.230056,-0.321339,-0.075212,0
-0.886698,2.64865,-2.33218,-1.89723,1.25156,-2.35153,0
2.22262,-0.416844,-1.36744,2.45463,-0.925964,2.81513,1
-2.89348,-2.28512,2.56973,0.0629781,-3.05884,0.894875,0
-1.36727,2.39386,-1.63358,2.96501,-0.0950398,2.02385,0
1.55957,-3.03054,-2.94724,-0.450283,-1.29945,-1.66443,0
3.13792,2.27994,0.720127,-1.80591,-2.97248,-0.48919,1
1.55626,-1.17212,2.07741,-2.98049,-0.671321,0.050193,1
-1.73865,-1.94284,-0.54891,3.0742,-1.87874,-2.5228,0
-2.40829,-0.946947,-0.135797,-0.044604,0.554808,-1.4777,0
-0.768532,0.211544,2.83675,2.20234,3.10745,1.31807,0
-2.83373,-1.55432,-0.35927,-1.94643,-2.88642,-0.240816,1
-2.67345,0.957185,1.03567,-2.89131,-0.208205,-1.10429,0
-1.742,-0.788917,2.46907,-0.0511711,-0.382932,-3.0807,1
-0.0549324,-1.92417,0.0189232,-1.37787,1.81549,-2.04905,1
0.250708,-1.17191,-0.417294,-2.06419,-2.12449,1.914,0
-0.60306,-3.12356,0.0317984,0.422956,1.22438,2.41689,0
-0.961642,-1.19329,-2.42872,-2.62821,1.89536,2.47458,0
-1.90751,0.841004,1.17155,-0.67326,2.54515,0.99895,0
2.24524,-2.63337,-2.60425,0.0953392,2.41745,-0.668709,1
1.91607,-0.250236,-0.0270379,-2.91596,-1.73868,-2.03205,1
-1.44717,0.796084,2.45601,-2.31595,-3.01932,2.01983,0
2.37706,-1.61831,-0.979372,2.50406,-2.88159,1.78745,1
-1.09823,-0.600143,0.116104,-1.69385,-1.47568,0.526605,0
-1.01616,-0.864787,1.0052,2.68121,-1.35181,2.48601,1
-1.22242,-1.93843,0.0369233,-2.54871,-3.10226,-0.311839,1
-1.28318,-1.07702,0.576066,-1.09962,0.401461,2.39078,0
-0.111509,-1.52083,-0.572981,-1.38602,1.21581,-0.234017,1
0.23797,-2.3937,2.86385,0.447738,2.42826,2.9017,0
0.747331,1.07059,-3.09764,-1.73609,2.42573,-0.690286,1
-1.21388,-0.661093,-1.82808,2.85429,1.50244,0.177837,1
-1.38959,1.16417,-1.67743,2.59877,-1.62984,-0.532805,0
-1.12375,2.17385,2.26594,-2.22841,1.96415,0.715846,1
2.99963,2.38303,-2.8991,-2.72572,1.75337,2.74477,0
0.909858,2.88328,2.17813,-3.01756,0.913803,-2.58533,1
-0.28783,-3.02698,2.72217,-2.93024,2.82999,2.56965,0
0.179601,1.90086,-2.61704,-2.98861,-2.62548,-0.451073,0
0.500965,0.487911,2.75712,1.29017,0.695158,-1.02936,1
-1.37442,2.92038,-1.37261,-1.62145,-0.139798,2.41283,1
-1.36588,-1.36094,0.0342668,-2.91475,1.68002,1.29697,0
2.56227,-0.834391,-1.63326,3.04659,-0.762385,2.13925,0
2.68055,-1.63815,2.92971,0.947075,-2.79882,-1.72353,0
-2.65993,-1.21128,0.984554,0.184928,2.34143,-1.25909,1
-0.47008,1.518,-2.09476,1.04404,2.3437,1.51626,0
3.13587,0.165598,0.0828667,2.21305,2.48975,0.714054,1
-0.462924,2.83671,-2.37705,-1.65979,-1.95534,-2.67359,1
1.51086,1.96938,-0.773945,-1.41425,2.05961,1.42263,1
2.63734,0.22026,0.271132,2.88615,2.48069,-1.05753,1
0.504301,-2.15214,1.77916,-2.00409,2.21766,-1.44745,0
2.06059,-1.07286,1.12005,2.42017,0.225827,-2.63006,0
-1.17042,0.440545,-1.12486,-0.363119,3.1272,-1.25328,0
1.91627,-1.60556,2.58624,0.830123,-2.61089,-1.68953,0
-0.0365605,-1.09667,0.316884,1.20413,-2.10249,1.61942,1
-0.155633,-2.04012,-0.264633,-1.48171,2.52163,-0.755586,1
0.432603,2.39804,0.927736,-2.76898,-0.491833,3.09753,0
-0.770267,-1.23504,-2.2384,3.02795,-1.55199,1.61876,0
-2.22609,-2.605,-1.85418,-0.620326,2.56021,-0.556613,0
-1.57331,-1.76382,2.85049,-2.29286,-1.16512,0.988353,0
2.00948,-2.69111,-0.560091,1.28763,-2.90215,1.49123,1
0.265152,2.04021,2.86074,-2.54435,0.61056,-2.87707,1
-1.39586,0.157702,2.46386,-0.361012,-1.9678,0.250438,1
-1.47778,-0.610458,-3.03413,-1.41966,1.68754,2.5965,1
1.24735,-1.78073,-2.68963,-1.58893,-2.10635,0.614009,1
-0.338311,-1.09259,0.323726,0.512948,-0.787507,1.99101,0
1.99635,0.711544,0.805186,0.741693,0.862573,1.31707,0
1.00407,-0.534299,-3.13277,2.60824,1.88101,2.85377,0
0.703877,-2.23753,-2.08194,2.61636,-2.09339,-1.93029,1
0.351944,1.29414,-1.94088,2.43268,0.924117,-2.61164,0
-3.12279,-0.171919,0.183602,-1.9097,-0.457611,-1.37773,0
-0.51583,-2.58021,-2.55013,2.32682,0.564374,2.96399,0
-0.37301,-3.03836,3.12563,0.288224,2.29375,0.67311,0
-2.83051,0.512201,-1.37408,2.30223,1.48521,2.88213,1
1.48243,-1.42079,-2.5548,2.69317,0.51255,-1.62232,0
1.15727,-2.59519,2.03706,-1.12383,-2.88746,0.47326,0
2.94533,0.228809,1.32255,0.143299,-2.35064,-0.674486,0
0.501569,-2.44752,-0.903026,1.75846,-2.07076,-0.840426,0
0.640131,-0.819707,1.89925,2.27718,-1.61773,-0.870093,0
2.81887,2.42797,-1.98276,2.0756,-1.62286,0.791071,0
-1.2082,0.026675,0.778936,-3.0782,-2.20569,0.109948,1
1.53241,-0.589987,-2.3441,-1.56313,3.01269,-1.44557,0
-1.1758,-2.10224,-1.55987,-2.88823,1.79121,-0.75413,0
-2.19022,2.20114,0.629344,-2.21446,0.590835,0.103295,0
1.26016,3.10681,1.31522,-1.38083,-0.700299,-1.16357,0
1.37516,0.702067,-1.88059,-2.71535,-0.448351,-0.150731,1
1.96249,1.045,-1.29946,0.211431,0.932704,1.67921,0
-1.37532,-0.822606,-0.980507,-0.24981,0.680887,1.52593,0
-0.835773,1.92176,2.80748,0.21377,-0.735109,-1.24867,0
2.06575,0.944251,2.29092,-1.80035,-3.06154,0.47811,1
-1.98099,-1.59502,2.34577,-1.01513,-0.962225,-0.950137,1
1.20193,1.08828,2.93046,-0.55281,0.26538,1.91878,0
-2.69255,-0.972155,1.09731,3.10256,-3.06328,-0.777524,1
-2.84181,0.724972,1.37236,-2.38389,2.69022,2.20013,0
-0.0536838,-2.87952,2.69248,-1.76498,-2.17825,2.59865,1
-0.147742,-2.61617,-2.45361,2.87687,2.2361,0.219524,0
2.18553,-0.591696,-2.32655,-2.51959,1.38911,-2.23713,1
2.6321,-1.22192,0.94677,2.01899,0.600937,0.426301,1
-1.80208,-2.49926,-2.32353,0.111166,-2.17577,-0.649665,0
-2.13171,-2.1495,-2.42573,2.03908,2.12773,-3.11693,1
0.62836,-1.25655,-0.456352,1.2122,1.1028,1.10358,1
-0.683677,2.92833,2.48872,-0.820978,2.90723,-2.45897,0
1.76776,-1.5142,0.424131,-2.9722,-2.35934,-1.65766,0
2.03395,-0.112148,0.348854,2.7781,-2.32474,-2.38875,0
-2.88747,-0.505445,0.970821,1.01131,0.893695,-1.21691,0
1.09066,-2.85504,-2.10433,-1.91467,0.673662,3.02225,0
-0.0374131,1.38753,-0.170538,0.268931,2.51732,-0.530611,0
1.40796,2.82789,-1.61528,1.23218,0.901171,-0.796505,1
-1.4464,1.45221,2.14759,-1.78185,0.483896,1.36597,1
1.85762,2.77286,3.02699,1.96348,0.243073,1.01854,1
-1.86302,-2.03953,-0.148868,0.244216,-1.65324,2.32511,1
-0.327032,2.97794,-1.88266,2.25375,-1.67313,0.41305,0
-2.45084,-0.589671,-0.143268,1.05392,1.43167,2.06944,0
2.77323,-1.75227,2.22145,-1.84669,-2.92266,-1.16034,0
0.554316,-0.461856,2.31655,-1.20913,3.13807,0.471178,0
1.56037,-2.7883,0.504538,-2.78982,-0.396547,1.51676,0
2.45831,-1.40916,-2.06837,-0.386381,-2.31523,-1.3969,1
-2.86994,0.182918,-2.59189,-1.65559,-2.92651,-1.19255,0
-2.39417,-2.51403,0.345312,2.77854,-2.09711,-1.23496,0
-2.99761,1.32035,-1.85467,-1.77051,2.48805,-2.44511,0
-0.642274,1.64295,1.804,0.141992,2.51631,-1.76467,1
-2.16092,-2.55329,2.85344,1.26075,-0.727571,-1.12466,1
2.77743,-1.54811,-1.26623,2.76584,0.535989,-1.97296,1
1.32047,2.35173,2.2852,-2.06206,-0.335202,1.32548,1
2.44553,1.64171,-1.84358,-0.357253,-1.74256,2.89678,1
-1.22207,1.38159,0.909116,0.888979,-1.11089,-0.236162,1
2.90977,-2.81516,-0.815258,-2.29266,2.95098,-0.946935,1
-0.669533,-1.27878,1.27349,-1.99161,-1.5108,-0.822082,0
0.957248,0.920408,0.984033,2.779,-0.223054,-2.00298,0
-1.88329,1.56551,2.40221,-1.27832,-2.35217,-3.08134,0
-0.327303,-1.98745,2.91792,2.76601,1.44744,-2.11718,1
-2.3877,-1.27188,-0.672158,-1.83614,2.2372,-0.494114,1
-3.02883,3.06965,-1.26714,0.394629,-1.36597,-0.932165,0
-2.0823,-2.7693,0.918214,0.185179,1.47117,-2.38588,1
2.9924,2.40737,2.37442,2.91837,1.35666,2.22651,0
2.19887,0.617003,0.1048,-2.05176,-2.52853,-1.33751,1
-2.3056,2.15041,1.33555,0.0178674,-1.59005,0.455037,0
1.69499,0.912165,-2.53472,2.87783,0.408707,0.69017,0
-1.27067,-0.969049,2.17974,-2.48514,1.0231,1.34666,0
-3.08458,-2.36967,1.71235,2.28325,0.0718274,0.762122,0
-1.33323,0.24164,1.06145,-1.06315,1.1974,-2.67398,0
1.85454,1.68141,-1.24438,1.43941,-0.133104,2.20558,0
-2.06212,1.79659,0.74768,-2.31274,-2.44874,-0.542693,1
2.21851,-1.7841,-1.8573,-1.75817,-1.97974,1.65201,0
2.75169,-1.14185,0.875277,-1.62052,-2.71764,1.01264,1
0.248405,-1.10314,1.37177,-2.32403,3.13056,1.38462,0
2.56747,0.0985761,-1.25383,0.583355,-2.32165,0.371123,0
-0.416611,-2.44811,-0.839829,-1.90457,-1.69426,2.48554,1
-1.98342,1.55785,-0.517328,3.06903,-2.9987,-1.59339,0
1.99401,-0.18388,2.65913,-0.0807638,0.649205,-2.1496,1
3.11438,2.96447,2.41965,2.14883,2.80515,1.16672,1
0.332008,-1.19787,-2.62532,1.6249,1.40951,0.171351,1
1.93739,2.95672,-0.989899,1.7623,-1.84958,0.420808,0
2.46998,-2.88736,2.84346,-1.95858,-0.593331,-0.251749,1
-1.31236,0.0161355,-2.20625,-2.89238,-0.333966,-1.19674,0
1.01353,-2.65086,-2.74843,-0.733494,-1.68532,0.846143,0
-1.94214,-0.497688,1.51147,2.53128,1.30523,0.793872,1
-2.80357,-3.00956,0.345302,0.387776,-0.239279,0.789701,1
-1.88836,1.67538,0.0599458,2.52422,1.99015,2.35166,0
2.57411,2.88729,2.53048,-1.57882,-1.03371,-0.586062,1
-0.00476918,-2.11023,1.01534,0.128466,1.98403,-2.77575,0
0.435337,-2.56957,-1.85543,2.61792,-0.814114,0.410921,0
0.67693,2.92986,0.548209,-2.07463,1.30673,-3.00465,0
2.364,2.11756,-2.43968,-0.898022,-3.05714,1.65877,0
-1.11962,-2.02656,2.44862,-1.14959,1.98106,1.21771,1
-1.90472,-2.57877,-1.33499,2.32538,-1.23244,2.2455,0
-0.188589,1.76878,1.62402,0.37808,1.88418,2.76249,0
0.102231,2.71109,-1.85234,-0.316205,1.22407,2.13103,0
-0.655097,-1.29114,2.50501,1.21544,-0.921859,-2.90403,0
1.89153,2.80778,1.91169,1.406,-2.39299,1.87391,0
1.66536,0.354823,-2.89701,-2.68857,0.527411,1.91917,1
2.62516,2.31078,2.05868,2.357,2.2517,-0.0434007,1
0.621339,-2.87572,1.68958,-1.30945,-0.18693,0.44776,1
-1.81576,-2.12741,1.92297,-0.425898,-1.29813,-1.72688,0
-2.69548,-1.93973,1.86367,0.455678,-2.96718,-0.287322,0
2.15625,3.10941,1.69615,1.76052,1.2427,-2.09113,0
-2.4242,1.66013,-3.09857,2.55929,1.12407,-2.2734,1
2.72012,-1.163,3.02653,-0.909116,1.47899,-0.876903,1
0.352787,-0.156561,1.02217,0.328946,0.658963,1.84041,1
-2.92543,0.43799,-0.117075,2.54687,-2.12206,-0.517528,0
-0.748074,-1.34402,-0.716608,-0.53933,-1.81315,1.97441,0
-0.104342,0.597618,3.05635,-1.07397,-2.78104,0.319523,0
-1.5058,0.537607,-1.20166,-1.15015,-2.4508,-1.42808,1
-2.49927,2.04916,-1.7884,2.74549,2.45369,0.691645,1
-2.75664,-1.63693,1.15849,-2.34771,-1.67649,-0.747369,1
-2.83687,0.0250706,-2.17606,1.2413,1.59059,-2.93359,0
0.736456,0.469024,-2.70574,-2.00571,-0.91395,-2.24501,0
-2.5711,-1.12071,1.4063,-2.55227,-2.11509,2.51857,0
0.947426,-0.0887683,-0.161548,-0.910548,-0.537254,-1.06212,0
-0.341562,0.999829,1.37468,1.83244,-1.87934,1.92291,0
1.89684,2.3384,1.28925,-3.09991,-2.30829,1.20423,0
-1.66493,-1.20196,0.162663,-0.609686,2.95592,0.0151008,1
-1.14957,3.08412,-2.58388,1.35931,1.16969,0.990402,0
1.40441,-1.06072,-0.303365,-0.330233,0.520502,-0.315575,0
-1.42138,0.891201,1.57328,2.84995,-2.43747,2.2523,0
0.881929,-2.71338,0.23286,0.0681928,-0.58081,1.92068,1
3.0746,-0.80937,-3.11639,-2.32166,-1.47626,-2.95899,0
-2.46301,1.22033,-3.07255,-1.86467,0.173955,0.659528,1
2.26418,2.09894,-2.82144,0.0946031,1.04726,-2.21239,1
0.143733,2.62607,2.26806,-0.195731,0.585236,2.66874,1
-0.30563,2.08099,1.36174,2.73192,-0.630462,1.41151,0
-0.770453,1.27462,-0.710892,-0.211028,-0.829066,-1.42508,0
2.11558,1.00625,1.49017,-1.80208,-2.88665,-2.93251,0
1.18518,0.0237239,-2.95796,-0.426053,1.65532,0.928057,1
0.114898,0.276963,-2.55175,-1.28058,-1.73175,-1.32191,1
2.85712,-0.88439,-2.39944,0.64473,-0.774943,-1.43937,0
0.190497,1.26365,-2.51616,-0.520869,-1.44821,1.05834,0
0.0390938,1.60701,1.38426,-2.21038,-0.143316,1.52477,0
0.736285,-2.56817,-0.977028,0.323325,-0.255267,2.08917,1
1.12734,-2.5917,2.42789,-2.29949,0.282149,1.60489,0
1.1367,3.1279,2.5212,0.69071,2.21863,2.25866,0
-0.0964324,-2.30513,-2.01232,3.11503,0.728027,2.30585,0
0.995085,2.4631,-2.01901,2.91191,-2.2568,3.05516,0
-0.775099,-0.895336,0.478589,-1.5781,2.12079,-1.37169,1
-1.44493,0.410404,2.21137,1.86318,-2.48746,1.59515,0
-3.06408,1.1158,1.98966,2.43123,-1.56989,2.36299,1
1.09193,2.81753,2.72516,-0.914579,1.09882,-1.13148,1
-0.932561,-2.49593,0.336541,-2.45422,1.42564,2.0228,0
0.38048,3.12382,1.28361,2.50295,-1.31891,0.394209,0
0.0626566,-0.42002,-2.76012,1.38,1.29097,1.60747,0
-2.24807,-1.37335,-1.34385,-1.05024,1.34025,-0.810304,0
2.73622,-0.163373,2.16697,-2.55088,-1.95569,2.45792,0
2.25622,1.21672,-0.406585,-0.980667,2.1308,-3.02716,0
-0.146871,2.88284,2.5147,-1.78318,1.40637,-2.48759,1
2.77393,2.56576,-0.462208,-0.753592,-1.4606,1.68026,0
-2.73982,-0.875437,-0.337585,0.90189,0.274874,-2.95999,1
-1.94476,1.23101,1.00891,0.212749,-2.09019,3.13516,0
0.110052,2.79819,2.03265,0.374447,0.134208,-1.76804,1
1.75405,0.488317,0.296349,0.857445,-2.3928,2.28659,0
-3.04951,-0.174734,-0.218904,2.05367,-3.13612,-2.94551,1
-0.451712,1.71373,1.71382,-1.34262,-1.44671,-1.67623,1
2.55627,-1.48371,-1.91643,-1.70017,0.577075,-1.87776,1
-0.479793,-0.966602,-3.08374,1.06838,2.73611,-2.43634,0
2.31741,2.4087,2.23339,-0.216886,0.67635,-0.55574,1
-0.89864,0.0104897,-2.77102,-1.27053,-2.39023,0.291084,1
1.04693,3.13935,0.364499,-1.97791,3.0299,2.3529,0
-2.40447,2.5535,-2.60694,2.1216,-1.72094,-2.30081,0
-1.52911,-0.352797,0.702282,0.0834457,-2.03486,-2.86569,1
0.615594,-2.2336,-1.69057,2.10372,3.12491,-1.6157,1
-0.4841,-0.380549,-0.468109,2.06504,0.312527,2.74664,1
-1.37594,1.90026,-2.05174,0.0956239,2.04442,-2.722,0
-2.86382,0.518798,3.0127,-2.00544,1.56345,-0.434286,1
1.08386,0.53319,2.14203,-1.48769,-0.113935,0.155562,1
-0.750457,1.23763,2.63465,2.16145,-2.58023,1.71785,1
0.818815,-2.58573,-0.980803,1.25494,-2.87288,1.98268,1
2.94708,0.0329142,1.28267,1.52669,0.499265,-2.4202,1
2.81141,2.24312,2.07776,0.401797,-1.21612,-1.11463,1
2.33188,-1.87949,1.00677,-2.69059,-0.900728,-1.33185,1
-1.82058,-2.66622,0.484357,2.46308,-2.69205,-1.26998,0
-0.892501,2.91492,-0.574292,-1.33025,2.69596,1.60162,0
-2.3152,0.268001,2.77081,-2.78429,-0.0422557,-3.07294,0
2.03744,-1.68458,-2.8404,0.398573,-0.436719,1.97466,1
-1.12077,1.78775,-0.808043,-2.05928,2.26433,-2.0603,0
-1.66164,0.225565,2.03888,-1.6391,-2.75068,-2.11014,1
1.00991,2.46832,-2.19713,0.184645,2.71662,-2.92209,1
-0.944999,3.0326,-0.165649,-1.42562,-2.12021,1.43086,1
-0.289714,1.54289,2.61734,2.04688,2.67449,0.209917,0
-0.781464,-0.352305,-0.0243905,-0.589979,-0.40399,0.716253,1
-0.473818,-0.0169385,-0.526143,-2.7918,-0.464455,2.78466,0
1.60193,-0.262689,2.63827,-0.882269,2.8524,-0.485868,0
0.862,1.53174,3.10231,-2.48218,-2.06239,-0.234481,1
2.23233,-0.276237,1.35221,0.339197,3.04713,-0.571816,1
-1.41401,-2.87868,-2.96276,0.901992,0.712437,0.498626,0
-1.62646,2.66144,-2.05054,1.70956,0.518604,0.694872,1
-2.90643,1.75945,2.2746,-2.14617,2.03045,0.353712,1
2.22095,1.39312,3.05525,-2.48608,-2.2622,1.55903,1
0.749862,-0.999791,-0.802201,-1.3537,1.4656,1.17773,1
1.35446,-2.73426,-1.71748,2.87093,2.79302,2.80604,0
-2.56959,-1.11425,-2.83261,0.333209,1.01621,-2.14866,1
2.4625,1.40852,0.509469,-2.00774,-1.89027,2.53967,0
0.891826,2.3456,0.816794,-2.06826,2.78788,1.8199,1
2.84721,0.425217,0.848337,2.81786,1.8966,-0.22443,0
1.16132,1.37199,2.42366,1.02253,-1.9142,3.01351,1
-2.77705,-2.84493,2.52027,0.183565,1.18214,2.99443,1
-2.03529,-2.86642,-2.98955,2.68925,-1.71225,2.12096,0
2.93356,-2.12535,3.09753,0.423537,1.3588,2.08749,1
2.54028,0.576403,-0.117917,-1.87323,-1.01696,-2.48745,1
2.15267,1.25084,-0.885803,2.50357,1.3108,1.15329,0
-2.25719,0.169848,1.38089,0.962603,2.06015,2.55045,1
2.98396,0.903024,-1.73116,-2.28975,0.0579767,0.903405,1
-1.35448,-1.68069,-0.746255,-2.3176,2.53336,-1.54696,0
-0.202781,0.882579,0.675424,0.5576,3.05861,2.22845,0
-2.29415,2.14441,-0.223895,1.09218,-0.109717,-3.10302,0
-0.358185,1.67333,0.768729,-2.44853,2.66642,0.875212,0
-2.63246,0.803607,-2.57258,0.221267,0.674812,-1.5527,1
-1.84356,-1.7968,-2.77183,-0.667071,-2.06622,-0.0191547,1
0.678739,-0.682196,1.31899,-2.01228,1.24961,-2.69248,0
3.13559,0.271267,-3.09632,-2.4969,2.67253,-1.04648,0
-0.309197,-2.62584,-2.52052,2.3453,0.836408,-0.631214,1
-2.31663,-0.0764802,2.9617,1.52665,-0.367876,2.50908,0
0.797762,-1.44924,2.27983,1.64335,1.80076,-1.77603,1
0.440014,1.64718,-1.5355,-2.27342,-0.12228,1.88126,1
2.73099,-1.12445,-0.140625,-0.855094,1.3163,2.43106,1
0.502088,-1.71006,2.54224,0.940151,-0.90093,1.57737,0
3.12946,-2.37797,-2.87413,2.45143,-1.48357,1.91988,0
-2.8638,-0.977517,1.86074,1.25042,1.62859,-2.45551,1
1.9755,-2.93804,-1.6298,0.584217,0.847687,-0.112631,0
-1.54133,1.48938,1.08626,2.63818,-0.945599,0.518416,1
-1.05777,1.53154,-3.08375,-1.79051,-2.1606,-3.10349,1
-0.583281,2.68749,0.520988,-0.313239,2.2011,-0.931841,1
1.36244,-1.78896,0.73935,0.893591,0.532368,1.29766,0
-0.283521,3.08815,-2.23388,-2.70778,-1.11147,-0.132687,0
-2.29154,2.93003,-1.08394,-2.39732,2.47232,-2.52333,0
-1.01883,-0.0837901,2.22849,0.171671,-1.2503,-0.00839848,0
2.36519,-1.07418,-2.93482,2.95418,-2.55869,1.17186,0
-2.9683,-0.109216,-3.10303,-2.24153,-0.483365,-2.56447,1
1.49355,2.63725,0.442764,-1.82782,1.33243,0.0486822,1
-2.89196,2.51719,-0.00757406,-1.75445,-1.74431,1.21032,0
-0.38809,-2.47664,-0.416253,-0.695143,-0.735308,-1.68081,0
2.54727,-1.47289,-2.09991,-1.02219,2.07417,-3.04111,0
0.0446245,0.772989,-1.05895,1.54006,3.05738,-2.00846,0
1.74266,-0.689233,-3.02588,2.65779,-0.763454,0.129964,1
-2.5107,-1.52428,-2.10888,2.97023,-2.39872,-2.4568,1
-1.81769,1.426,-2.73015,-0.392847,-0.606756,1.30349,0
-1.94789,-1.62438,-0.829199,2.3902,-1.95698,2.92153,1
-1.0305,-0.496593,0.415936,1.44827,1.9778,0.761226,0
-2.83045,0.705749,-0.47162,1.47479,2.52117,-0.429647,1
-1.92942,-2.92687,3.00602,-0.421277,-1.17831,-0.322383,1
-2.542,-2.9561,-0.391824,-0.801243,0.763739,-1.97615,1
-0.960344,2.75589,0.75804,-2.49342,-0.25717,0.0977175,0
2.57701,-1.55392,-1.78006,1.50757,0.342252,1.7207,0
0.30001,1.22563,-2.09807,-2.61042,1.28227,-0.124357,1
0.372932,2.16077,1.14937,-2.53088,3.11315,-2.17492,0
2.55797,2.50467,0.377734,2.7522,0.525389,-2.42148,0
-0.130766,-0.378848,1.23638,2.10918,-2.95389,0.575987,1
-1.68038,1.83215,-2.6793,1.89075,-1.50717,3.02966,1
-2.11959,2.6222,-0.946987,2.10602,0.784237,0.496648,1
-2.65028,2.08479,2.01429,-1.43528,-0.977005,2.21198,0
-2.58037,2.05111,-0.665007,-2.2055,2.85995,-2.98637,0
-1.41248,0.838862,2.88194,-1.39959,1.57006,-2.74122,0
-2.80148,-2.95375,-2.93598,0.958973,0.165012,-2.99236,1
-1.83274,0.668027,-2.30693,-2.25238,-0.286363,2.12614,1
-2.20702,1.17858,1.64193,1.3732,-0.676524,0.651474,1
-1.73022,2.29956,0.508209,-0.876578,0.544571,-2.75514,1
-1.13387,-1.07347,2.61396,-0.850535,0.756963,-2.15321,0
-2.43877,-1.76013,2.44137,0.895971,2.72378,-0.521954,0
0.734076,-0.379084,1.56741,-2.73853,-1.63489,2.46425,0
0.0209837,0.439454,2.35495,-2.54906,-2.6456,-2.90079,0
-0.758419,-2.5581,2.5938,1.98393,-1.20445,-0.749763,1
-1.62132,0.792835,2.38124,2.24485,-2.33448,3.13653,0
-0.822613,-2.82023,-1.76817,-2.37162,2.57818,2.33229,1
-1.32304,-0.312613,0.536699,-0.971328,-3.13803,-0.376658,0
1.1361,1.69515,-2.68956,2.94,1.00719,1.91423,1
0.143022,-1.44189,2.23456,-0.000491532,-1.25773,2.75818,1
1.8373,1.38931,3.02268,1.24119,-2.9313,-2.08965,1
0.43719,3.07477,-2.97939,-0.578546,3.1007,1.0426,1
0.82839,2.18541,0.288093,-2.69609,-2.29537,-0.233128,1
-0.0532706,-2.7138,-1.4125,1.3443,-0.754167,-2.19418,0
2.95797,-2.80411,1.17571,1.23349,0.191817,-2.22521,0
1.02896,-0.702127,0.446292,2.6841,1.75719,1.78746,1
1.62531,0.592017,-1.41767,-1.80966,-1.45406,2.7492,0
0.382443,-2.13002,1.08608,-1.22822,-1.33171,-0.411167,0
1.75155,-1.67234,2.07402,1.52183,-1.78735,0.631161,0
-2.40343,2.36649,1.21522,-0.252733,-2.90354,0.330148,0
1.55921,-1.93326,-2.12987,2.17235,0.785159,0.979824,0
-1.35666,-2.95651,3.11443,1.97854,-0.174467,2.62192,1
-1.54951,1.4193,1.95018,-0.835152,0.897964,-0.105693,1
-2.18883,-2.03711,-0.225407,1.56918,0.371787,-3.0919,1
-1.49538,2.52888,3.0119,-1.17174,1.61272,-1.01981,1
-3.0554,0.861745,0.167229,1.07774,1.39445,1.30789,1
-1.89993,1.89325,2.20404,0.358695,0.0583415,-2.91877,1
0.360959,-2.24484,-1.97496,0.29684,-1.56279,-0.621508,0
1.91182,-2.82064,1.32772,3.00711,-0.733192,-0.40642,0
1.61137,2.99964,1.67917,-1.55923,-1.07945,-1.47394,1
-0.848764,1.72739,1.81913,-1.53551,-1.78015,-0.291949,1
2.76544,-0.279175,-1.91124,-1.01591,-0.0513059,0.125958,1
-2.39825,1.61491,1.33843,-2.00392,2.99611,0.209606,0
2.76514,1.68938,2.44213,0.0822855,-3.10579,0.935659,1
2.82223,-2.91752,-2.47458,-2.49348,2.46828,0.111279,1
-1.55609,0.106334,2.55176,-0.72631,-0.920179,1.77209,1
0.789094,-2.4208,-2.2006,-1.90544,-1.34544,2.937,1
-2.97688,2.77573,0.974741,-0.884354,-1.10346,0.679056,0
-0.579802,1.16002,0.525111,-2.93678,0.459191,1.34849,0
0.404915,-0.5081,1.79092,1.0834,-2.69399,-3.13122,0
-0.874363,2.55335,-3.07675,0.829536,0.731398,0.532937,1
1.36784,1.18248,-3.08415,2.29174,-0.0633326,2.32503,1
2.37896,-1.24185,-2.68246,2.20128,1.89908,-0.348653,1
0.462833,-1.58954,2.11678,-0.062093,0.184714,3.09562,1
-2.54563,-2.49525,-1.51386,1.76592,-0.277406,0.221358,0
-1.49664,-2.37008,-0.212544,1.79332,-1.6326,-0.519004,1
-0.894571,0.738679,-0.190322,-0.371849,1.47647,0.837533,0
1.55315,2.49453,-3.10613,-1.37403,-1.58855,0.410219,0
2.07372,0.274559,-1.78567,-3.04268,1.53053,0.640691,1
1.92626,1.73379,-2.17151,1.95336,0.231227,0.333721,1
0.262052,-1.4037,-0.712648,2.60821,2.58407,1.50523,1
-2.49229,-2.03396,-2.45758,-2.83391,3.04494,-2.97268,1
-0.153031,1.84463,-2.53285,-1.00331,0.0677269,-0.549537,0
-1.31332,1.6023,0.677196,2.6847,-2.16244,-2.30752,1
0.658897,0.688787,-1.95615,-1.11854,-1.44799,0.96755,1
-1.41809,-2.69123,-2.16064,2.27342,-1.54831,-2.64446,0
-1.28945,1.02764,-3.09938,-1.07873,-1.41308,-1.76589,0
-1.46348,-0.195841,-0.598635,-0.475424,0.908474,-1.26574,1
-0.380074,0.187991,2.29819,-0.233048,1.80203,-1.68509,1
-0.810704,-1.2162,-0.871489,-2.20081,-0.319693,-1.29133,0
-1.77591,1.24298,-0.686518,1.39997,-2.43629,1.65778,0
1.45346,0.121797,2.13099,-1.04095,-2.68296,2.36277,1
-2.76645,3.05969,-2.62511,2.56427,0.251327,-2.07784,0
2.04233,2.78417,-0.677807,1.55592,-0.181902,-2.21948,1
-2.48287,-2.47722,-2.47997,-2.3866,-1.90477,0.259052,1
-0.68896,-3.05396,0.188049,-0.451229,0.0105166,1.62959,0
2.09594,-2.28999,0.842991,0.375097,2.61838,-1.62548,0
0.628766,1.38852,-2.58745,2.3335,1.17787,-2.93012,0
1.25084,-0.211404,2.96049,-0.578214,0.553431,-1.45832,1
0.69289,2.07591,0.819208,0.0540263,1.3699,-0.532493,1
1.33246,-2.40805,-1.398,3.05542,2.92026,-0.0857843,0
-0.486551,1.26557,1.14255,2.89604,1.16046,-1.62172,1
-1.20631,-2.84314,-0.149839,-2.97412,1.87379,2.22435,1
3.08673,2.12909,-1.74488,-2.23166,-1.1966,-0.110822,0
-1.10384,-2.04378,-2.02189,-1.15202,-0.452014,-0.293003,1
2.5456,-2.66365,-1.40959,0.653462,0.529839,0.215474,0
0.883142,0.469585,-0.903698,2.13572,-1.42866,0.594121,0
0.321698,-1.50552,-2.45327,-1.88788,-1.74654,3.06465,0
-0.515228,-1.4661,2.04577,-0.375396,0.345379,-2.94566,0
0.0585348,-1.32878,2.85895,1.17989,-2.46988,2.78587,0
-2.41722,0.0868104,-0.639876,2.37301,1.77594,0.595391,1
-0.350163,2.17725,2.12414,0.454483,1.70321,0.0858986,1
0.789755,1.43928,-2.16682,-0.619653,-0.940148,0.466589,0
1.2787,2.75184,0.482479,2.97024,2.02272,1.41805,1
0.704542,2.95054,-1.64269,-2.29786,2.41955,1.71776,1
0.757648,-2.35601,-0.527516,-2.07189,-2.51953,1.81074,1
2.10688,0.504175,0.03932,3.09624,-2.76302,2.85643,0
1.48344,2.17574,0.565957,-0.306227,2.08859,-2.81107,0
-2.46504,2.02598,0.156994,-1.94788,-0.365151,-0.417854,1
-2.28287,-0.499396,0.42578,2.43429,-2.89083,1.69514,0
-0.331231,0.306596,2.44469,-2.04956,0.615314,1.19045,0
2.80668,2.93198,1.08377,1.66583,-1.31442,-2.98851,1
2.35157,2.6373,-2.65908,0.750287,-1.58606,0.284823,0
1.76232,-2.8538,-0.513736,0.163189,2.02644,-1.95406,1
2.73477,0.342356,1.64318,0.469122,-2.6206,-2.49255,1
2.9383,1.92054,0.503014,-0.774069,2.26234,-1.61412,1
-0.0550331,2.67535,1.14781,-2.23996,0.774105,2.59757,1
-1.46181,-0.562121,-1.80677,-1.78895,0.537407,-0.241382,0
0.883569,-2.08527,2.65154,3.07387,-0.861398,-1.56232,0
-2.00158,-2.04803,2.42968,1.04087,1.88827,-1.93849,0
-0.9652,-1.71973,-2.41991,0.936747,-2.76034,-2.35501,0
-0.913756,-0.554632,0.687921,2.045,-2.88775,-2.52552,1
-0.62388,1.20221,-1.88845,-1.60062,-1.11124,-0.936172,1
-3.04579,-3.13116,1.01059,-1.55261,-2.92375,2.93493,0
2.41891,-2.32914,-1.30517,-2.39427,-0.890285,0.435493,0
1.13671,1.35459,1.77114,2.05761,2.79859,-2.49808,1
-1.30189,0.549029,0.0912316,-0.903079,-2.92231,2.01018,1
1.56682,0.736945,1.72842,-1.23561,3.033,-1.95085,0
-1.78851,-0.65036,2.56813,0.823575,0.573817,0.862932,1
-1.2785,-0.586844,-1.6178,-0.317151,-1.73592,1.03148,1
-0.263698,2.91881,1.32124,-3.00477,0.929258,1.68189,0
2.21619,-0.607583,0.861833,1.91331,0.708479,-1.15396,0
-1.14675,0.399478,1.01237,-0.91732,-1.22723,3.01366,0
-1.71691,-3.13813,-0.498921,2.39571,0.637773,2.88563,0
-0.984821,-1.20449,1.49755,-2.33215,2.95188,-2.08289,0
-1.81463,-2.04699,-0.782209,-1.55434,2.5163,1.27337,1
-2.53919,-0.0960521,0.439519,2.88894,2.42742,0.260236,0
-1.87931,0.642503,1.37287,-0.30745,-2.8184,-0.383781,0
-1.3593,-1.88887,-1.69858,0.0370757,-0.150766,0.597746,1
1.01654,0.0323444,1.24196,-1.73612,0.634305,-3.11865,0
2.96162,-2.53396,-0.0647523,-3.07086,-1.11491,-2.01354,0
2.48115,0.503386,-2.41824,0.72645,-2.69767,1.64591,0
1.86558,2.91842,1.5722,-3.02974,-2.31977,1.04677,1
0.541809,1.03534,-2.62144,1.45381,0.667987,3.09944,1
1.26579,0.904427,-2.13712,1.92852,0.817525,1.86417,1
2.45471,0.115264,0.834954,1.62602,0.730466,-1.70373,0
-3.11825,2.87431,-0.214162,-0.818885,-0.293248,1.0642,1
-0.830223,2.35445,-1.14249,-3.05492,2.07654,-1.95178,0
-1.30262,-0.615074,1.86782,-0.284704,0.785483,-0.262256,0
2.69793,-0.870726,-1.58496,0.910162,0.154085,-0.95805,0
-1.92977,1.65026,-1.32905,2.71122,-1.45876,2.89982,0
2.64475,-1.50615,1.34788,-0.232234,2.28748,-1.96583,1
2.7256,-2.94255,-1.40713,-2.60449,-2.09974,2.00302,0
0.474022,1.89709,2.10658,1.00508,1.43526,-0.136865,0
1.33108,0.470407,1.62225,-1.38461,-1.63788,2.77727,0
-2.02657,-0.253115,1.11742,0.51519,-0.111396,2.81228,0
-3.06754,-1.55596,-2.79233,0.397934,0.486877,0.78892,1
0.849308,1.4476,-0.358857,0.856779,-1.183,0.940129,0
2.83566,-1.93899,1.03169,2.56569,1.99057,-1.49071,1
0.847718,2.1426,2.51416,-2.04467,2.4018,-2.70661,1
-0.835156,-2.70958,2.36622,-1.65723,2.58354,-2.44689,0
1.88365,0.459145,1.78221,0.482304,-2.35084,1.5014,0
2.30829,-0.755743,1.244,1.63862,1.29582,0.91615,1
-2.62185,2.03655,0.742222,-0.517059,-2.23835,2.90737,0
0.52515,1.69723,2.78542,3.057,-2.94816,-1.64165,0
-0.1006,2.97276,0.523196,-2.10511,-2.42662,-0.956422,1
1.81829,-3.11086,1.78652,-1.63268,2.72387,1.63432,0
1.10376,0.137209,-0.669187,-2.97286,0.630259,-0.842956,1
-2.93221,-1.88545,2.42273,-0.181813,2.74243,1.49957,0
-0.253585,0.636949,2.44831,1.72379,-3.10126,-0.539933,0
-2.21141,2.19007,-0.0356249,1.32328,1.71327,-2.23569,1
-0.278539,-1.27545,-0.0865238,-2.04985,-0.776139,3.13063,0
-0.197312,0.156169,-0.387157,-1.92155,0.105986,0.900165,0
2.88099,-0.544593,-2.40611,-1.01542,-3.1208,0.796116,0
-2.69165,1.70354,1.17898,2.47674,2.20694,-2.36498,0
-0.674039,0.198793,-0.351289,0.897522,-2.50484,1.31983,1
1.668,1.87007,-2.39459,-1.11055,1.50167,-2.37164,1
2.79229,0.000820417,2.92699,1.1884,-1.67445,-2.38457,1
-1.12706,2.79602,-2.60867,-2.91838,-1.88904,-0.905651,1
-2.0049,-1.87101,0.152611,1.10626,-2.71858,3.0919,1
0.0200639,-0.230344,1.97441,3.04823,-2.86449,-0.987471,1
-1.44402,3.06745,-1.93163,-0.159444,-2.18624,-3.06275,0
-1.0714,0.691543,-2.30922,0.471174,2.70074,1.85947,0
0.282155,-1.66338,1.78972,0.945954,2.42619,1.19242,0
1.99293,-1.72602,1.27162,1.86655,2.0381,-3.02955,0
-2.25637,-2.09907,-0.850243,0.0346563,-2.63746,-1.80116,1
1.61012,0.722845,2.21506,-0.727296,1.77608,-1.46856,0
-1.92885,2.58625,-1.60894,0.156953,-0.612865,-2.2822,1
0.663096,-1.36814,-1.28389,-0.0860908,2.30924,1.83218,0
-2.49737,2.52601,-2.73046,2.1837,-2.84476,2.37326,0
1.15006,1.629,2.87499,-1.14146,-1.41401,-2.07226,1
-0.977906,0.0218961,2.42426,0.318723,-1.65748,0.539129,1
2.89129,-0.847904,1.44084,-0.0493148,1.13544,-0.918867,1
-1.79634,-2.19844,0.0789372,-1.81435,-2.33811,2.92298,0
-2.40158,1.63594,-2.20945,-0.972985,1.51884,2.79131,0
-2.15023,-0.299751,0.341818,1.9284,-0.759051,2.59283,1
1.83409,3.09829,2.70781,0.788146,1.06618,1.17131,1
1.95482,-0.56818,2.93632,1.95302,2.53195,-1.88946,1
-0.390305,0.630242,1.79472,-0.461699,1.77467,1.06648,1
0.725014,-1.88214,1.10003,1.9293,-0.00931804,2.83026,0
-1.54727,0.22288,0.873275,2.17369,1.43072,2.27184,1
1.79931,-1.13711,1.05707,-0.437075,-1.46755,0.0668424,1
1.60873,2.44462,1.86871,0.271919,0.52488,0.116805,0
0.132852,0.275342,-1.68508,-1.76445,-0.497042,-1.20509,1
2.0715,-1.5531,-0.83747,-1.49927,2.13597,-1.97263,0
1.10621,1.1995,-0.193618,0.0460314,2.52106,0.165114,0
-2.52533,-0.170925,1.22906,2.95068,-2.51717,-0.130121,0
-1.17593,-0.790272,-1.06918,2.9895,-0.219173,2.64477,0
2.10887,-3.04213,-3.1099,2.10019,-0.698469,0.851603,0
2.20607,0.345312,2.65851,2.52639,3.04889,-1.74993,1
-2.26714,-1.21327,-2.08526,-1.89246,1.65458,1.25811,1
0.479739,2.89429,-1.19273,-0.220634,0.0668638,1.70344,0
1.80321,0.0840276,-1.07438,-0.31477,-0.787425,-2.48064,0
0.210108,-0.159369,0.429702,3.02878,-2.65558,0.44906,0
1.78747,-1.475,2.38728,0.727595,-1.4749,-3.06993,0
2.23148,3.0242,0.157378,2.79148,-1.90552,0.123133,0
1.76504,-2.10326,-0.179238,-0.778677,2.90298,-0.89792,1
-1.70296,-1.10899,2.32715,-1.4077,-0.228123,-1.97168,0
-1.52742,2.62741,2.81874,-1.20442,-0.0625738,-1.28429,1
-0.533507,2.08447,2.44662,2.90865,2.90529,-1.78527,0
-2.01044,1.70971,-2.75781,-1.42232,-1.94011,-0.174953,0
3.05825,-2.90065,-0.588585,2.34379,1.08533,2.68874,1
-1.00504,-1.43896,-1.644,-1.14002,-2.85267,-0.320943,0
-1.90952,-0.348251,1.6206,-1.29353,2.93163,-1.66989,0
-0.534497,2.93551,-0.772707,1.201,-0.303856,2.60725,1
-1.67759,-1.03109,2.4583,2.02943,-2.35332,0.17644,1
1.3319,-0.037178,0.269734,-2.69222,2.08519,1.46867,1
-2.28229,-0.155373,2.25538,2.54739,1.25388,-0.873075,0
-2.63637,1.4933,0.297178,1.95818,-1.56513,-2.14006,1
-1.30879,1.769,-2.18353,-0.0051568,1.24733,-2.3359,1
-1.49873,0.746328,0.502095,-0.566536,0.144502,2.60132,1
0.0916011,-0.848185,-2.1626,-1.13053,-2.95072,2.98251,1
0.974412,0.601119,0.331557,-2.50242,2.32905,-2.47826,0
-1.04239,2.78776,-2.02426,0.0446921,-0.571046,-2.72097,0
-2.25857,-2.38933,-0.279688,-1.03921,-2.66808,-2.1852,0
1.67496,0.425796,-0.980334,-2.863,-0.842148,-3.13963,0
2.37433,-0.520291,0.841426,-2.65235,-1.1171,-2.39121,0
-1.16709,-0.440338,2.49209,1.21776,-1.77325,2.6828,0
1.74854,2.1209,0.758271,-0.0439481,2.56751,2.2937,1
0.502358,2.67699,-0.801642,0.00750852,0.77197,-2.81125,1
1.72719,-2.09188,0.76925,2.43121,1.54474,-0.335013,0
-1.70692,2.88449,-2.52623,2.89649,0.678721,2.41162,0
-1.88739,-0.953111,0.343935,2.85685,2.0507,1.11488,1
2.63919,-1.51864,0.00663183,-2.8828,1.80833,-1.76141,1
3.0916,2.97616,0.454479,-0.580677,-2.16412,-0.649029,0
-0.679684,-1.92753,-1.03679,-2.15547,-2.05841,2.96631,0
1.6335,-1.78561,2.79143,-1.36042,-2.1178,-2.1823,0
-0.215005,-2.68223,0.474686,-0.319894,-0.0538752,2.79803,1
2.80594,-2.563,2.4388,1.51538,2.07399,0.724434,0
-0.19314,-2.05106,0.416738,1.60211,-1.74002,-2.30653,1
-0.849056,1.78295,2.87048,2.95828,0.721556,-1.31626,0
-2.15109,1.66838,-0.105896,2.25032,-1.82662,-0.208368,1
-0.578728,-2.73646,0.560995,2.97575,1.31774,-2.06961,1
2.88881,-3.12445,-2.5327,1.36084,0.437129,-1.51427,0
-2.11224,-2.53107,2.82384,0.0930687,-0.00431004,-0.716292,1
-0.0986558,-0.461799,0.939892,-0.308841,-2.78685,-2.3888,1
-1.17371,0.491667,-3.12299,-3.128,1.38212,2.80208,0
1.80794,-1.25527,-0.79444,-1.66425,0.749459,2.02184,1
-0.157927,0.924668,-0.631631,2.41073,0.936634,-0.713061,0
0.900579,-1.00283,-0.345623,-2.40631,-2.13826,-1.81504,0
-0.795159,-2.04925,2.59141,2.54257,-2.56185,0.646513,0
0.249904,-2.85017,0.220401,-2.78802,-2.32801,-2.97941,0
-1.62483,0.74497,-2.76113,2.45064,0.480494,0.0870572,0
-0.967753,0.175211,2.3405,-1.42678,-0.383341,-1.15132,1
-1.63055,2.21612,-0.688578,-2.74603,0.802976,0.271481,1
0.419446,-3.09678,-3.01567,-0.514492,-2.86325,-1.18317,0
-2.93844,-0.364009,-1.1898,-0.55707,-1.36209,2.29586,1
-1.56182,-3.09717,-2.04788,0.942894,-1.60742,2.55083,0
-2.60622,-2.61339,1.98034,-0.788761,-1.7273,1.8814,0
2.5429,1.37166,-0.332347,-0.403624,2.00208,2.10695,0
-1.62663,-2.71209,2.43287,-1.09011,-1.74512,2.02555,1
-1.62137,1.1295,-2.40579,1.85314,1.87994,1.22206,1
-1.18614,-1.18526,1.96425,-2.35709,1.23457,1.7819,1
-1.35196,1.41271,-0.413579,1.90117,2.12423,0.572421,0
1.59618,-0.907098,-3.07271,1.70642,-3.11688,2.12061,1
-1.4897,-2.13808,-2.91265,0.124987,-0.0524394,0.33038,1
-2.40883,0.903163,3.12,1.07757,0.347652,-2.25244,1
-0.392684,2.50037,-0.81818,0.642964,-1.21181,-0.839659,1
-0.739909,0.958865,1.94925,0.158159,-3.08128,0.116126,0
-0.464275,-2.20966,2.58234,2.05553,1.11463,1.04543,1
-0.317682,-1.26308,1.84101,-1.02789,-2.33333,-0.866564,1
0.78343,-2.37975,2.82617,1.26469,-2.26883,0.445224,0
2.85616,1.77123,2.57394,0.221182,-0.130683,-1.38695,1
1.85885,0.684989,-1.26107,-1.9304,1.23371,0.546183,1
6.89043e-05,2.25536,2.78665,-1.7218,1.56932,-1.87546,0
-1.58088,0.661625,0.381858,2.43986,2.95299,0.51518,0
2.57422,-1.51146,2.92365,-1.23476,-1.31057,2.40275,1
0.119026,-0.489368,1.83645,-0.997773,2.80629,-2.12819,1
-0.554417,-0.353277,-2.7964,-0.0475732,-1.09329,-2.97514,0
0.294958,2.01404,-1.79811,2.04502,2.47329,-1.80497,0
2.194,-1.10857,0.0298326,-2.48772,-0.347705,2.64804,1
-1.70794,-2.4066,0.12694,3.03188,-1.83285,-3.06709,0
-0.373597,0.593096,1.47975,1.90281,2.17617,0.731496,0
-1.07333,-0.390585,-2.22571,0.0119612,0.366563,-0.26647,1
-1.93199,-0.105304,1.7899,-2.36029,2.50156,-2.98093,0
0.833909,-1.75738,-1.39255,-1.59267,-0.77573,-1.12743,1
-1.12297,0.409573,2.67003,0.77915,1.91072,-1.38782,0
0.97025,-2.09573,-0.581117,2.66498,-2.59985,1.14183,1
-0.812825,-3.13435,-2.5764,1.90524,-1.25056,-3.049,0
1.1171,2.02679,-2.6498,-1.31848,2.96367,-3.07793,1
0.535736,-1.30347,0.925203,-0.592719,2.71408,-1.60667,1
-0.62081,0.0818653,2.30364,-2.85027,0.50085,1.12863,0
2.02538,-1.61953,-0.849275,-3.04115,-2.31964,-1.73835,0
-1.36664,1.16911,-2.73093,1.77198,-0.917517,2.68151,0
-2.11341,0.210822,1.18487,2.60892,-1.22115,-1.53552,1
1.32782,-1.06319,-2.41744,-1.62185,-2.23933,2.70742,1
2.77844,1.79854,1.2338,-2.21343,-2.94834,-0.801588,0
-2.6655,2.03369,-1.26823,0.87037,3.0991,-1.28062,1
1.63728,-1.60966,-2.88301,-2.91107,-1.0631,0.186331,1
1.65612,-2.14474,-1.93314,-0.128773,1.27989,-2.4631,1
-1.38344,-0.0705218,-1.95925,-1.46548,-2.71326,2.78283,1
-0.484156,2.62857,-2.78322,2.20492,2.8676,-1.38932,0
-1.42499,-2.65741,0.27479,2.08784,2.10109,1.49711,1
0.587294,-0.124338,-1.95377,-0.718921,0.979793,1.26371,1
-2.15563,-1.42696,1.19321,-1.3384,-2.0896,1.06526,0
-2.21672,2.18032,-3.08838,-1.29703,-2.07826,-0.376645,1
2.45524,1.46368,0.26122,-2.92562,0.800097,-0.464247,1
0.928398,-2.91915,-0.643173,-0.49586,2.191,1.93269,1
-2.37391,2.23324,-1.73632,1.13194,-3.09915,2.85254,0
0.52417,-1.48065,1.43629,1.35338,-2.29033,-0.961435,1
1.94609,-0.436936,-2.80799,-1.95625,2.62663,-1.7897,1
-1.34551,0.431268,1.56036,2.08848,-1.30618,1.86156,1
-1.44517,-3.00245,-0.539764,0.654478,-2.8575,-1.60389,0
-0.46998,-1.18169,0.594014,-0.669063,2.12835,1.28042,1
0.735054,-0.188964,2.00639,-0.827422,-1.359,-1.57021,0
-1.62531,1.56968,-0.552503,0.227111,2.53707,1.01517,0
2.23523,-2.08762,1.82604,-1.74514,-3.04397,-0.704444,1
-1.14453,0.630621,1.0933,0.362606,2.87031,-1.2018,0
2.41426,2.46513,-2.35103,-1.38278,2.73544,-1.96735,0
-0.25428,-0.516526,1.54129,1.87964,-1.37401,-2.09831,1
-1.08108,0.817932,0.59937,0.899524,2.37838,-0.33313,0
0.768171,0.619542,-1.35895,-2.62273,-1.64985,-1.68511,0
1.00641,3.11432,-2.64923,1.44812,0.364459,1.8669,0
-2.03927,2.54696,-1.42912,2.02213,-2.5127,1.85523,1
-0.488986,-0.194118,-0.191854,-2.62488,-0.645295,-0.693139,0
-0.0391436,0.981924,1.59184,1.98953,0.365893,1.11797,0
2.21703,-0.0688805,1.86504,-1.87057,2.8093,-0.757643,1
-1.20144,-1.23112,-0.320252,-1.45874,1.51155,-3.00216,0
-1.54692,2.88598,-0.379698,2.45036,-1.99023,2.62957,0
-2.23869,-0.0690574,2.96147,-2.40363,0.645661,3.08221,0
1.76045,-0.0191281,0.809397,-1.7093,2.85262,1.03951,1
-0.728846,2.94533,-2.59413,2.32016,2.79445,-0.853246,0
-1.53449,-0.948799,0.619894,2.73585,-0.532578,-0.360184,1
2.18728,-0.581324,-2.38405,0.562972,-0.370778,3.01979,1
1.83795,-0.227345,-0.473182,-0.236669,-0.68028,-0.128142,0
3.10301,-0.350994,-2.13165,-2.0312,-2.92851,-0.336986,0
-0.0572928,1.45055,2.92856,1.95476,-0.0590349,1.08108,0
0.967369,0.0221211,3.02634,0.60102,0.523606,0.524638,1
-0.325777,-0.0398985,-2.37081,3.02335,-2.69017,3.12458,1
1.55568,-2.51783,1.48122,0.521729,-2.22115,0.810069,0
0.670966,-2.8846,-0.327239,2.42694,2.83528,-1.99271,1
-0.115103,-0.406774,-1.35072,-1.74678,-3.07527,2.98274,1
-1.6415,0.248013,2.99542,2.18788,-2.11236,1.65943,0
2.8267,2.61311,-2.84256,2.17358,2.92579,3.01071,1
0.340581,0.707721,-0.559695,-1.06392,-1.9369,1.55347,1
-2.80475,-2.05161,0.639876,-1.54695,1.10438,0.779673,0
-1.66657,-2.58738,1.13779,-0.23737,1.62331,-0.037554,0
-0.369986,2.87365,1.72996,-2.35123,-1.23324,-2.34311,0
-2.77209,-2.45376,1.57883,1.78001,0.271612,-1.52763,0
-2.25347,-2.49407,0.918653,-1.24147,0.580604,0.00865827,1
0.288017,1.71329,0.90786,-1.03971,-1.75695,1.29144,0
-1.53708,-0.041031,2.37309,2.64253,-0.600262,-2.54191,1
-2.92656,-1.38845,-2.52246,-2.02024,2.467,2.1113,1
-1.89126,1.19738,-1.12423,0.952571,2.97383,-2.92362,0
-2.87724,-2.19061,-0.218203,0.696169,1.31011,-2.3813,1
-0.66076,1.02948,-1.62561,-2.50603,1.98645,-3.01278,0
-1.30004,-0.937832,3.01116,2.61303,-2.53067,-2.36498,0
2.95865,-2.91733,-2.69052,1.81677,-1.14638,2.78305,1
-2.00664,-2.17173,-1.81445,-2.35332,3.01686,-1.33395,1
-1.45836,-0.959847,-0.751286,2.10764,1.90247,-2.76884,0
-0.643971,-1.07206,2.35632,-2.66549,-2.69143,2.96588,1
-0.516938,2.73085,2.02959,1.09425,2.12879,1.37603,0
0.360909,-1.30802,1.5205,-2.67414,2.69324,2.84148,0
-1.65874,0.388084,1.8427,1.36317,0.981298,-1.42076,0
2.411,-1.16141,1.85359,-1.56441,-2.57896,2.81264,1
0.898396,-1.75925,-0.628028,1.82473,1.5461,-2.59665,0
1.87839,-1.85469,-0.682401,2.52266,-0.768948,0.51945,0
-0.403403,-2.27793,2.40176,-0.725665,2.45232,-2.90202,1
2.71637,-1.45817,0.773151,0.195286,-1.58431,-2.86386,0
-2.52419,1.19702,-2.47449,-2.77492,1.88084,1.17953,1
-0.498422,2.63144,-3.05999,2.67085,1.17935,-0.0251189,1
-2.97618,0.188475,-3.06718,-1.68435,1.05708,-0.99478,1
-2.4446,2.75998,0.256104,-1.72511,0.660389,-1.62343,1
-2.16647,-2.82332,-0.132552,-0.332082,1.02081,-2.89616,0
-0.425842,0.239892,1.24202,-3.07132,-0.39077,2.77194,0
1.20817,-0.75964,1.96199,3.09866,3.10865,-2.1978,0
-2.40405,-0.372251,2.00029,-1.77463,-2.54883,-2.38395,0
-0.41251,-2.31061,-2.55811,0.944034,1.72911,2.65908,0
0.126054,-3.10205,-2.52503,1.02075,0.717614,1.05106,0
-0.84065,2.96471,0.838042,-1.99998,-2.30003,0.675417,1
2.16178,3.05351,2.64751,-1.72505,0.749228,-0.32941,0
1.49472,-2.55551,1.64026,-2.97131,-2.41701,-0.0758839,1
-1.32568,-2.28184,1.99488,1.07679,-2.27923,-2.03951,0
2.15016,1.60017,0.681859,1.58953,2.8156,-1.23884,1
-2.51987,2.80528,2.9374,3.05217,2.8007,-2.05623,1
-0.249233,0.570925,-0.96387,2.90348,1.61953,0.565603,1
-0.910177,-1.95335,0.843538,-2.72559,2.92606,-0.253836,0
2.23288,-0.585612,-0.104614,-2.20824,-2.95695,3.11055,0
-0.861102,2.86482,2.73414,3.07955,-0.330786,0.160976,0
-0.855353,-1.04774,-2.0764,2.73924,0.258737,-2.2427,0
-0.85358,0.662506,0.170369,-0.965464,1.5841,-2.52128,0
0.460399,1.88748,-1.67115,0.412203,2.56713,1.79365,0
2.34019,0.293066,2.96222,-1.86617,1.23578,1.09545,1
-0.508759,3.01919,1.01949,-1.00048,-0.765207,-1.8435,1
-1.52467,1.71249,1.24612,2.89553,2.02816,-2.1213,0
0.889418,0.418583,-0.983481,-2.4511,-0.00406982,0.3614,1
-1.25991,2.06503,3.0887,1.8762,0.0886584,-2.8534,0
0.22285,2.79961,1.62218,2.80318,-0.465084,0.0667344,1
2.89538,0.637403,-2.31439,-1.83709,-0.503366,-2.12693,0
-1.75866,-1.62965,1.97498,1.04078,2.61388,-0.619381,0
2.63283,0.393819,-2.01624,-2.55917,-1.78227,-1.60662,0
-1.04038,2.43962,-2.09567,-2.99775,-0.321464,-2.2814,0
-0.363711,-1.91545,3.06206,-1.91649,-1.31871,2.3213,1
-1.82195,-0.734029,2.30567,1.62338,1.4555,-0.594462,1
2.74182,0.628849,0.640121,2.24347,0.876763,2.92678,1
1.50825,-0.10493,1.47155,0.225579,0.472816,0.544025,0
1.17376,-2.27752,-0.0448627,1.27675,-0.597688,-0.023071,0
1.44386,0.254928,-2.36701,-0.192524,-1.92683,-3.10464,1
2.21953,-2.9235,-1.04096,1.28918,0.369872,-2.23077,0
0.102006,0.466714,1.97244,-0.979836,0.267749,2.91324,1
-0.0604955,0.115998,-1.74835,3.10727,-2.91608,-2.93336,1
0.845266,0.92099,-1.40883,0.989968,2.93577,-0.561718,0
-0.906542,-3.1377,2.40999,0.378358,-1.81156,0.465349,1
0.293751,1.13677,-1.23236,-1.58337,-2.28481,-2.25907,1
0.817862,1.98053,1.78877,-2.89785,1.65284,-0.109896,0
-1.01355,0.18053,-1.92639,-0.840843,1.28632,-2.54954,0
0.12707,-0.726625,2.3624,0.757912,1.23779,-0.0919079,0
-2.94484,-0.577912,1.30527,2.42597,2.45737,-1.13152,0
-1.63705,1.7774,-0.258625,-1.58655,-0.846886,2.97272,1
-2.65397,-1.73243,1.35022,2.66989,0.143347,-0.902007,1
-1.54597,-1.46085,2.59747,1.20192,-2.86521,2.86803,0
0.308307,1.91206,1.8974,-1.92564,0.157088,1.32695,1
1.19312,2.87571,-1.94811,2.99391,0.386305,-2.08268,0
-3.1395,1.72027,-2.21502,-1.01692,2.35282,-1.81872,1
-1.62147,-2.56868,2.09265,2.59529,-0.653407,2.83926,1
0.296961,-2.30723,-2.82742,-2.39147,1.8181,-1.15656,0
1.56281,-1.84486,-1.06347,-1.60025,1.16311,0.926841,1
-1.1704,2.66748,-1.93965,2.30691,-0.963264,-1.12321,1
-1.30972,-2.52583,1.57609,-1.38624,-0.898719,2.555,1
-0.441936,2.95802,-2.30156,2.04741,2.17985,2.22121,0
2.98238,0.0647583,-2.5752,0.167995,1.72738,-0.325088,1
-1.23357,1.03237,-1.10715,0.0819927,1.95524,-0.472385,0
-0.775699,0.142425,2.88478,1.55399,2.14707,-1.00255,0
-0.905277,2.73348,-0.0821719,-0.164765,1.29172,-1.02179,1
-0.630988,0.645757,-2.806,2.01702,-1.00672,2.84602,0
-0.374831,2.44091,2.45482,1.80439,-2.59912,0.308865,1
-1.65361,0.965033,-1.36225,-2.38264,0.944763,1.60768,1
1.50244,-0.458446,0.331503,1.11667,-0.675851,-0.65006,1
2.83003,0.774155,2.64613,1.37049,-2.26961,2.05568,0
-2.53503,0.7544,1.7606,-1.435,0.718937,-1.54849,1
0.838591,0.414368,0.377426,2.18267,-3.1194,-0.512323,1
-2.37186,-0.627423,2.51433,0.0258007,-1.42999,1.03963,1
1.63666,-0.410235,2.19643,0.781137,-0.33924,1.38153,1
-1.21373,-2.03434,2.04901,2.43743,-0.983879,-0.229399,0
0.0664607,0.315432,1.78195,-0.455531,-1.9755,2.53434,0
2.30198,-0.57335,-0.494827,-1.28709,-0.00209507,1.4911,0
-1.46191,-0.0416133,-0.857128,0.276728,-0.598071,1.42916,0
2.09463,-1.01428,0.943564,-0.692645,2.69989,-0.999079,1
-2.58539,-2.63659,-0.548147,1.92773,1.80171,-1.55607,0
-1.31357,2.41795,-2.035,0.787118,0.141118,-2.42833,0
-1.65256,-1.38602,-1.07574,2.77193,1.83679,2.77524,1
-1.23291,3.105,2.02144,2.69672,-2.90251,-1.82212,1
-2.5338,0.986553,2.279,-1.26332,2.78535,1.89123,0
1.86599,3.04386,-0.994507,0.99087,2.69896,0.0150497,1
0.223746,0.00721435,2.14903,-2.76553,-3.05459,-2.33343,1
-2.76313,-1.6578,-2.92859,-1.16114,2.16379,-2.52384,0
0.441358,0.395077,-1.49745,-1.79707,-1.04252,0.381979,1
2.86958,2.44545,-1.71738,-2.10616,-1.63712,2.72972,0
1.947,1.23572,2.23205,1.55796,-1.32818,0.0948242,1
0.838606,-2.76236,1.15454,2.61249,1.85321,-2.51844,1
1.21947,-2.22515,0.215321,2.97341,1.01697,-2.95351,1
-2.73012,-0.00464921,0.0108907,1.77937,-1.12365,-1.62691,0
2.09788,0.791187,-0.554733,-2.16672,1.47552,0.459433,0
-0.527785,1.66412,-1.76067,0.707899,0.0865535,2.40308,0
-1.54973,1.16532,0.485931,-2.32057,-0.109933,-0.399881,1
1.2716,-0.429136,2.85876,2.10736,-0.815973,1.71666,1
-2.86959,2.18694,-2.25374,0.714874,-1.48343,0.758396,1
-0.544005,2.522,-2.24692,0.933019,-1.53461,-0.367012,1
-2.79824,-0.659335,2.82865,-1.6813,-2.3568,0.301673,1
2.46785,1.81611,-1.45452,-0.232422,-3.11749,-1.5872,1
-2.03353,2.08164,-2.54979,0.0653934,-1.70151,1.84666,1
2.69594,0.273826,0.22145,-0.503531,-0.49812,2.66742,1
2.29275,0.788835,-2.53474,-1.50864,-0.522622,0.627878,0
-2.25958,0.105358,1.22893,1.49098,0.633492,-0.63815,0
0.693332,3.0019,2.1728,2.36041,-2.84545,0.86835,1
-0.751618,-0.102828,-1.36019,0.13306,1.68402,-2.75581,0
-1.155,2.03901,0.688112,1.33362,-0.971536,-1.76955,0
2.77442,2.84961,-1.7321,0.671164,-3.06026,2.44473,0
-2.09904,1.91241,0.0756236,1.03061,2.3472,2.16112,1
-1.51378,1.77699,-2.55658,2.69181,-2.13089,-1.9872,0
1.16915,-2.51638,-0.155059,-0.0145146,-0.751189,1.62426,1
0.180054,-1.34939,-2.96923,-1.8919,3.01029,2.10416,0
0.553563,0.278566,0.0824469,-2.49864,-0.726146,-1.99246,1
-1.28985,0.286729,1.69679,-2.72485,1.8224,-2.22372,0
1.93041,0.875539,2.48836,1.00747,-1.97578,-2.26506,0
2.34322,2.5494,1.61059,0.666431,-0.186722,2.55265,1
1.02962,-0.126624,2.41424,0.724796,0.220853,0.72734,1
2.4061,2.03909,2.00869,-1.82263,-0.509423,-2.42642,0
-1.06451,-1.30853,-3.05061,-1.18746,0.780355,1.23193,1
0.479407,-0.460876,-1.67057,0.853275,2.98115,0.455731,1
1.98096,0.86422,2.95885,2.06078,-2.13118,-2.44887,1
2.6473,3.06769,-1.76191,2.6005,1.31287,2.75218,1
1.76633,-0.350568,-1.3037,-2.21281,-0.0294666,2.36915,0
1.50485,0.226825,0.052193,1.12255,0.926334,-1.89489,0
2.04444,-1.25021,2.2789,1.31201,-0.407332,-0.442188,0
-1.23827,2.31453,-1.11402,-2.92574,-0.349798,2.66432,1
-2.53592,2.96728,3.07753,-2.73349,-2.87927,-1.77668,0
-2.72504,-0.363414,-1.59678,3.13533,-0.383886,-1.72045,1
1.95067,-0.301427,0.248799,-2.98106,1.27188,2.64723,0
0.77904,3.01623,2.45837,-0.439659,-0.335043,3.08498,0
-0.977078,1.89741,-1.81012,0.0240515,1.96426,0.819453,0
-2.48466,2.04362,-0.883285,-1.87134,-2.49004,-3.01663,1
0.809807,-0.471963,-2.87873,-0.826646,-0.828398,-1.99545,0
0.975443,-2.94788,2.11894,1.86434,-0.0197978,-1.8066,1
-0.437667,2.27745,-1.33366,2.1439,0.508459,-3.11195,1
-0.214917,-2.85779,-0.891405,2.70654,0.193121,2.22805,0
-1.97543,-0.837215,0.421776,-0.755328,-2.42923,0.66738,0
-1.23483,-0.24922,3.06423,0.503031,1.64499,-1.0052,1
2.71713,-2.03829,3.12547,2.56962,-2.56242,-0.573851,1
3.1084,-0.723069,-0.427376,1.91637,-0.560193,2.79135,1
1.81154,-2.14675,-1.31547,1.45882,2.27737,-1.38086,1
1.86664,1.69124,-1.4345,1.53084,-2.98665,0.0190034,1
1.78144,-2.7732,0.607209,0.959136,1.40177,1.83151,1
-2.70395,-0.115513,2.3465,-2.60972,2.74339,-1.80314,1
2.5156,2.16706,-2.33256,-1.30169,1.20591,0.874636,1
-0.978431,0.988994,-0.265082,1.29708,0.222667,0.543868,1
2.64208,-0.911779,-2.79576,-2.18579,-3.00976,0.866911,0
0.150152,-2.32282,-1.59345,0.123204,0.0772294,2.54408,0
-2.62316,-0.635729,-0.75931,1.49352,2.4783,2.87958,0
2.84264,-0.845348,1.22198,0.693798,-2.00536,-0.210605,1
-0.392829,-1.06309,-2.24174,1.3446,-2.91367,1.79812,1
0.365387,2.84434,2.03546,-0.751797,0.523306,1.3485,1
0.532421,-0.769699,1.441,-2.01091,-0.0606264,0.947849,0
-1.60364,1.00042,0.0642374,-1.32443,1.42998,0.698721,0
2.44987,2.86339,2.96799,1.81375,-1.87947,1.32189,1
-0.914483,-0.948276,-1.44495,-1.53502,-1.86621,2.44094,1
0.214178,0.588466,-2.37413,-0.0973779,-2.51742,0.765284,0
-0.693352,0.219611,-2.69865,-2.34271,-0.31581,0.0445183,0
2.23093,0.45269,2.8762,2.08296,1.80407,-0.749231,0
-0.719223,-3.07627,-1.58187,3.13963,-2.71262,-0.990024,1
2.73048,-1.32953,1.37325,-0.230749,1.40048,-0.244146,0
-1.04175,-1.18468,-0.718767,3.05144,-2.95515,1.75743,0
-0.533963,-0.797941,0.094805,3.02563,-2.43462,-2.92719,0
-2.48588,-2.51527,0.362051,-0.0699308,-1.14728,-2.10346,0
0.783199,-2.46125,-1.9863,-0.814668,2.55903,0.701317,0
1.39144,1.63759,0.655604,0.880756,-1.78941,0.534705,0
2.81189,-2.19031,2.72813,2.9901,2.92679,0.0262652,1
-2.15963,-2.20617,0.692439,-2.13566,-1.551,-0.0758142,0
-0.218847,2.77762,3.10389,0.596356,0.393339,-1.53413,0
-0.708272,-2.48427,-1.81921,2.76618,-0.141093,-1.80154,1
-0.941419,2.59962,-0.857748,-0.569841,2.98063,0.369687,0
2.20053,2.62635,-2.0671,-0.00627204,-1.15429,2.22991,0
1.67734,-2.56505,-2.11973,-1.49012,-2.71066,2.63001,1
1.42301,-0.989751,2.05531,-2.33671,2.79203,1.7932,1
2.56772,3.07159,-0.386951,-0.823848,-0.55556,-1.98092,0
2.97869,-0.569432,0.732614,1.33046,-2.39269,1.90341,0
-0.673024,1.67724,-0.902012,-0.238624,1.37836,-0.43606,1
-1.10433,0.504143,-1.11267,-1.81871,-2.93648,-0.151919,1
1.88379,-0.370543,-2.0788,-2.66565,-3.04752,-1.41868,1
0.164446,-1.69526,-1.10234,-1.12936,2.378,0.761177,0
-0.986833,0.667088,1.69829,-2.63648,-2.93803,-1.68558,0
-2.86768,2.24576,-1.62088,0.817528,-0.550739,1.62755,0
-1.47407,0.266759,-0.456576,-2.29474,2.33963,-2.359,1
2.4776,-0.752063,-0.42534,1.46532,2.71942,0.365803,1
1.89917,-2.23408,2.82261,-1.63188,-2.83593,2.86837,1
-0.556386,0.0457739,-0.666872,1.62103,-0.638056,-0.181765,0
1.82309,2.61588,-2.33263,2.92873,0.0662466,-2.41357,1
-2.80877,2.09741,2.93288,-1.14128,-2.46466,1.66284,1
2.49161,1.85585,1.34846,1.01525,-1.59365,2.09616,1
-2.20181,-2.5513,-1.44152,-0.799854,-0.524872,2.18123,1
-1.72769,1.2014,-2.91295,1.92774,-0.557608,-1.87346,0
2.67056,2.51929,0.793371,1.31691,-2.87234,-1.17026,1
-1.35839,-2.97689,2.92208,1.59994,-0.52902,1.60994,1
-0.886971,2.15948,0.564354,-1.11917,-2.73754,-2.8525,1
-0.697013,-1.05537,0.540723,-2.58658,-2.5603,2.63633,0
-0.675522,-1.78743,0.213058,-1.6287,-1.28511,1.49751,0
-2.71368,0.407468,-0.174747,-1.22924,-0.687746,2.65845,0
3.07483,2.98457,1.77473,0.325927,-3.03791,-0.788024,0
2.67975,-2.84612,0.325648,-2.33976,-2.98877,-1.57186,0
-1.6138,-0.393467,-2.31867,0.210936,-2.61275,1.67536,0
-2.59799,2.09169,0.113436,-1.02856,-3.06148,-1.92871,0
-1.3797,2.99101,2.11596,0.907137,0.600657,-2.26051,0
-2.82968,2.82305,0.766275,-3.01538,-1.69511,-0.234318,0
1.03021,-2.30241,0.86612,-1.85126,2.19049,2.15095,0
-0.636749,-1.17813,0.546441,-0.373768,0.193394,2.73685,0
2.3035,0.639884,0.682331,-0.484581,-2.49664,-2.63467,0
1.5217,1.1178,-2.0839,-0.541049,1.2283,-1.79546,0
0.691364,-2.17086,1.80986,-1.84688,-0.875637,-1.64705,0
3.12073,-0.760417,-1.43634,-2.00975,2.71153,2.00581,0
1.43775,-2.25049,2.59243,-0.810979,-1.05061,1.58651,0
0.713077,-1.18011,-0.76321,-1.18545,-1.03995,2.69356,1
-1.97318,1.53129,-0.814592,2.29959,0.235165,-1.23151,0
2.08906,0.649499,1.76796,3.02092,-0.135278,0.82271,1
2.9643,-2.31228,0.429347,2.96172,0.0511532,-1.01146,0
1.90693,1.83553,-1.71119,1.78742,-3.0916,2.11652,0
-1.6372,-0.66965,-3.0573,0.867172,-2.26103,-1.9107,1
-2.29417,0.105091,2.6286,-1.27547,0.681957,0.699116,1
-0.411265,-1.00054,1.08291,-0.0926276,2.00408,3.00722,1
-1.54522,-2.99354,-0.99815,-2.87051,-1.14982,-0.365859,0
1.71776,2.94548,-2.01961,-3.05934,2.13348,-2.91884,0
3.04397,3.0233,0.0580752,-3.01189,1.56129,1.55997,1
0.970989,3.13954,0.135395,2.84798,0.235646,3.04413,0
-0.278259,-1.41491,-0.237941,0.366987,-3.07337,-1.56119,0
-2.17221,1.29316,-0.845456,1.37375,-1.02086,2.53113,0
-0.457599,2.03986,2.02872,2.53216,-0.714355,2.9171,1
0.322967,1.11703,2.88305,-2.35779,-2.46682,1.849,0
1.62729,2.67762,0.224878,-2.55751,-1.10857,1.07198,1
-2.31728,0.714113,-2.70276,1.62945,-0.602168,0.957707,1
1.15001,1.7594,-1.89442,3.04765,1.13021,1.57063,1
1.76256,-0.927069,-2.00258,1.23225,-0.86522,0.268981,1
-0.35096,-2.33063,-0.593797,-0.00222518,1.58746,-0.744225,0
-1.77012,-0.934929,3.08861,-2.57613,0.935395,-3.12971,0
2.2224,2.54933,0.367418,1.51163,1.92498,2.43413,1
1.95813,3.04032,-2.14642,2.97929,-1.21764,1.49911,1
-1.85046,-2.33482,2.53141,1.80254,0.667548,-0.449894,1
2.81895,0.564345,-2.44381,-0.966398,-1.74048,2.18015,0
-0.21548,-1.84554,2.55475,2.74934,-0.717944,-0.840127,0
-0.183733,-1.6779,2.62905,-1.53463,-2.86347,2.78036,0
-1.2844,-0.692713,0.778988,-2.78742,0.223303,-2.86006,0
-1.09685,-1.75223,1.31095,-0.0934377,-1.59249,-1.4553,1
-1.78219,0.209394,-1.8026,-1.4689,2.80093,-2.65463,0
-0.634008,2.32209,-1.90032,2.48131,-2.20352,-0.349067,1
-1.29607,-0.558806,3.02284,-2.35837,-1.17288,-2.9351,1
-2.05365,1.21646,1.57026,1.46328,2.43282,1.37546,1
-2.60213,-1.38346,-0.855934,-0.49361,1.14506,-2.61373,1
-2.54782,2.92795,-2.5573,-0.0240225,0.926083,1.90204,0
-1.16872,-0.150841,3.07783,2.19892,1.55821,-3.03216,1
1.34368,-0.316369,1.15166,1.6978,-1.98073,1.45756,1
-2.8147,1.17667,2.31212,-1.24375,2.04691,2.206,0
0.13113,-2.09021,0.240317,1.87903,-1.18727,1.01388,1
1.79205,-1.84024,1.25184,1.16468,2.02716,3.10793,0
0.51084,-0.430601,1.89918,-2.14803,-1.79362,-1.23731,0
-0.756772,0.993338,-1.50409,2.07944,-0.501554,0.444957,0
-2.90149,0.742089,-2.27575,1.19292,-2.07843,-2.76458,0
-0.994912,-2.56866,1.06014,3.07046,-3.03611,2.34706,1
0.974285,-0.950315,0.416004,1.34932,-1.70802,-1.46842,0
-0.102573,-0.463807,1.68309,1.39557,2.42398,0.434213,0
-1.24894,0.0967589,-1.93021,0.416447,-3.03896,-1.20215,1
0.184327,1.24912,-2.39583,-0.767512,0.292079,2.27351,0
2.34632,1.81176,1.68,-2.32453,-0.738839,-1.03229,0
-2.01688,-0.5673,-0.490996,0.475998,2.67102,2.06251,1
1.24038,-0.48027,-2.56113,-0.549689,1.48514,-0.342783,1
-0.968514,-0.666553,0.232794,-0.546538,0.857148,1.52902,0
2.1237,0.0217644,0.179955,-1.33631,1.99494,-0.748348,1
-0.958017,-2.12109,-2.16831,-1.44036,-2.65225,2.19035,0
2.88476,-2.02724,-2.69231,-2.11176,1.39646,1.63847,0
-2.667,-0.987826,0.141033,-1.02518,-0.642022,2.20655,1
0.304034,-0.637344,0.422654,-0.552121,2.97392,-2.55797,0
1.35275,-2.22893,-1.30393,-0.0856716,2.28284,0.179954,0
-1.0493,1.84288,-1.56335,0.641614,2.64949,0.0603941,1
3.05948,0.558143,-1.73996,-0.146556,1.30149,2.10819,1
3.01615,1.42264,0.000836628,-2.63734,3.05784,2.66358,0
-2.71662,-1.10997,-2.69929,1.36788,-2.11346,2.32513,1
2.27531,2.90069,0.700587,-1.31556,-0.948502,1.67406,1
2.23615,0.621685,2.2962,0.613685,-2.77803,-1.12972,1
-1.92072,-2.08553,2.63798,-1.75314,0.262405,2.89187,1
2.89956,-2.90015,-1.14179,1.27293,2.98062,-2.8711,0
1.43517,-1.02959,0.220154,-2.66857,-2.6763,0.0116709,1
2.7235,1.36667,-1.04945,-1.49682,1.60724,-2.0076,0
2.88565,-1.77826,-0.367122,2.24878,-2.90216,1.54485,1
1.15335,-0.38305,2.08536,2.68795,-2.07019,-2.25656,0
1.20403,-0.160104,2.32446,-1.34454,2.84202,2.71556,0
2.90251,1.42706,0.900798,3.12507,0.928404,0.898984,0
1.99471,2.72209,-2.47218,2.2545,-2.63063,2.40624,1
-1.70644,2.74616,1.87351,2.24378,1.58165,-2.28389,1
1.80002,-1.12734,1.4197,-1.56256,1.25395,-1.23939,1
1.00534,2.3338,-2.30313,2.06782,1.65383,1.90031,0
0.0483157,2.88898,1.02581,-1.53314,-0.408128,-0.638652,1
-1.488,-0.320049,-2.62312,2.05915,2.23832,1.2669,0
1.55905,-2.20429,-1.52145,2.38994,0.855742,-0.726469,1
-1.36584,-3.11498,0.575434,2.09038,3.13398,-1.71034,1
1.3995,-2.39186,-2.09187,-0.839251,-2.6911,-0.924687,1
0.808614,2.31058,-0.171734,-0.605186,2.31756,-2.27545,1
2.79596,-2.23803,-1.43268,-0.679167,-0.0180688,1.54315,0
-1.92823,0.0686691,2.77388,0.652332,2.11135,-0.29097,0
2.74929,0.17742,-1.69931,-2.41022,1.4716,1.58365,1
2.42803,3.1082,-1.2664,-0.9654,0.912306,-0.0100791,0
0.0275701,-0.162735,2.16765,-0.287492,2.4451,0.978576,0
0.245782,-0.812633,2.39498,-2.45112,-1.84911,-2.95516,0
-0.941156,0.967544,-0.380264,-1.36821,3.13081,-1.36466,0
-1.8686,2.27823,1.86489,2.40104,2.28197,-2.13485,0
-2.43282,-2.55296,-1.27286,-1.87928,-3.08976,-2.54336,1
-2.4393,3.08522,-1.59079,-0.535418,-0.263735,1.10342,0
-0.849992,-3.13482,-1.78233,0.0177531,2.39635,3.03922,0
-2.73896,-1.31265,-1.67863,1.16713,0.135481,-0.276041,0
-0.249661,-1.77163,-0.274645,0.480417,1.96699,-1.78786,0
-1.99965,-1.97524,2.55556,1.87302,1.54524,0.323066,0
-1.85218,-2.22436,-2.02592,2.26602,-2.0765,1.84985,1
1.32443,2.09034,1.83269,2.73714,-1.70438,-0.860988,0
-2.78351,-2.91843,0.495788,-1.62823,-2.89974,-1.035,1
0.761554,-0.675572,-2.82137,-2.66699,-1.52274,-0.706054,0
-0.473324,0.422889,-0.525225,-2.33259,1.08629,-0.282179,1
1.86335,-0.276328,-3.01388,-0.488178,2.47385,-1.93439,0
1.75086,-0.316013,-1.98513,0.790803,0.000524608,-0.674099,1
-0.666992,0.853034,-1.64083,-0.657296,2.52158,2.99768,0
1.51934,-0.0196571,3.11547,-0.792523,2.06537,0.444204,0
-2.15125,2.09572,0.702319,-1.39557,-1.51718,2.31167,1
0.109826,-2.18406,-0.71198,1.89817,-1.10802,-0.420206,0
3.1127,-1.72481,-2.24227,1.91782,-1.34311,0.774923,0
-2.40588,-1.80575,1.88931,0.194523,1.38341,-0.0285063,0
-2.52674,1.19978,-0.507715,0.679133,-1.77335,2.30849,0
-0.176272,-1.94154,-1.01055,-0.297487,1.5513,-1.9004,1
1.12145,-0.838201,0.958501,0.537901,-2.53943,0.595064,0
0.561296,-2.36363,0.57266,0.164074,1.08378,0.340999,1
-2.48539,-1.18495,-1.88999,-1.81298,2.74953,-0.623903,0
0.110151,-1.16622,-0.43024,1.1172,1.75283,1.12466,0
-2.5963,2.1747,-1.50695,-0.355533,1.04967,-2.90872,0
-1.42924,-1.30478,0.537985,-0.231315,0.0502647,-2.62987,1
1.10163,-1.86051,-2.62675,-2.46581,-1.80885,1.62094,0
2.51111,-0.34067,-1.44878,1.87217,1.18902,2.50149,0
-1.3662,-2.65497,0.163103,-2.47284,2.35772,0.985754,0
-1.75308,-2.48269,1.98284,-1.5025,-0.831858,1.03662,0
0.213856,1.90363,-1.30719,-1.65973,3.11931,1.54557,0
1.10517,0.243978,1.33276,1.61756,0.29359,2.93905,1
2.79628,2.60345,-0.0527349,-2.30498,1.16806,2.77702,1
-3.12922,-1.78553,-0.293303,-0.0547978,-2.42324,2.92421,0
1.21987,-0.171394,2.99869,-2.47679,-1.53631,0.240866,0
0.940042,-2.84976,0.802983,-1.80083,-0.0499927,0.0723482,1
-1.31471,0.804455,-0.104763,0.303217,1.53001,2.27984,0
0.468013,0.48948,2.26642,-1.22205,-2.70094,1.89113,0
-2.96373,-2.74852,-2.90076,1.02435,2.17544,0.597555,1
1.00226,2.27684,-1.14808,-0.636813,-3.06524,2.0887,1
-1.55196,2.08436,2.3605,0.444703,-1.80532,2.74673,1
-1.78389,-1.7548,0.2248,1.83006,-1.36451,-3.01495,1
-2.57604,-0.0192693,1.71884,-0.933522,2.62804,-2.19684,0
-3.02016,1.02399,-2.18005,-2.37184,-1.11322,0.765901,0
3.07555,-0.266455,0.872292,0.95242,-2.25805,-2.54668,1
0.29113,-1.70565,-2.13158,-1.69149,1.93702,-0.117561,1
2.85334,-2.43743,-2.50914,-0.382515,0.24408,0.0690944,0
0.216862,1.64386,2.02432,-2.00734,1.904,-0.586725,0
-1.08003,0.960369,-0.985098,-2.17594,1.4844,1.99613,1
1.66984,-3.06268,-0.609496,-2.78273,0.931542,-1.86223,0
1.08909,0.501232,-2.90216,-1.74739,2.06349,-0.590537,1
1.15164,-0.237806,-2.47058,0.0229088,1.16267,-3.08513,1
-1.63146,1.85279,3.01218,-1.29705,-2.38356,1.43498,0
0.490371,2.85251,3.00055,-2.07914,-3.12678,0.976999,1
2.09078,1.07376,-2.04974,2.69712,0.705137,2.24457,1
2.33032,0.482571,-0.475749,-1.25406,1.23734,-1.4271,0
-2.08658,1.18937,2.88502,0.258218,-1.76671,-0.809547,0
1.78187,1.06432,-1.48509,0.651046,1.72927,-1.07349,1
-2.59424,0.465223,1.36998,-2.83812,2.70345,-2.81114,0
-2.40321,0.204567,-1.09849,-1.21502,-0.0462995,1.8424,1
-1.76429,-1.93923,-0.264251,-2.40688,-1.2482,-2.58909,1
2.50631,2.28373,-2.7531,0.254801,-2.5555,-3.03908,0
-1.81516,-2.49844,-1.05032,-2.40939,-0.916358,0.646813,1
0.362304,-2.75929,0.0538312,1.42004,2.85872,1.6451,0
3.05405,-0.141028,-2.21363,-0.50176,2.13424,-2.85186,1
-2.34628,-1.98892,-3.06343,2.25117,1.21836,-1.19603,0
0.53003,-2.11856,1.5219,-1.28183,-2.20477,1.11803,1
-2.85675,2.80082,1.85668,2.54741,0.0402454,-1.0245,0
-2.24588,-1.4092,-0.611159,1.91677,1.78706,0.55378,0
-1.3781,-2.52949,2.71602,2.68029,0.446739,0.87871,0
-2.04753,3.07677,-2.30503,-1.37498,-1.13509,-0.330067,0
-1.44443,2.59174,-0.74668,0.379091,-2.18621,2.79138,0
2.81737,-1.19486,-2.18888,2.5925,2.45323,-3.08873,1
-0.93741,3.02838,1.59914,-0.8019,0.342056,1.043,1
-0.991774,-1.121,-0.701994,-2.09444,2.93606,1.65363,0
-2.5301,0.216164,0.885437,2.75031,0.316889,0.423848,0
-1.78077,1.55025,1.2549,0.256094,-1.61805,-0.505344,0
0.501587,1.72403,2.3511,2.30083,0.673402,2.60715,1
-1.62855,-2.73261,0.640152,2.4592,-1.43737,-2.28339,1
2.77673,-0.65775,3.04379,0.368183,0.59756,1.61439,0
-2.12925,1.56541,2.96417,-2.25404,-1.03099,-3.11029,1
-0.428365,-2.02961,1.22596,-0.660214,1.99799,1.55358,1
-2.04973,2.40894,1.24428,2.89274,2.30951,0.00248593,0
1.97255,-2.15077,-1.39594,0.762101,2.51356,1.07405,0
2.97224,1.35711,0.344702,-2.62401,0.190859,0.812299,1
1.87099,1.86311,2.18261,-0.602373,-3.04485,-2.94932,1
-2.92101,1.15466,2.45504,2.16543,-2.3006,-2.36071,1
-3.0352,0.153645,-2.3893,-2.98513,-0.553064,2.33711,1
0.383437,1.41326,2.92289,3.09257,2.69716,-2.53188,0
-2.21975,2.79937,-1.45907,-2.79087,-1.34972,2.26896,1
-1.91651,-0.514277,-1.59542,1.86123,-0.467121,2.44709,0
1.63662,0.730501,0.168434,-0.82432,2.46464,1.58814,1
1.46573,-1.59541,-0.682545,2.69228,1.73239,-1.37716,0
1.29486,-0.743971,1.03591,1.7405,-1.78745,2.62266,0
-2.59973,-2.60451,-0.0840211,-0.988108,-2.84694,1.94414,0
-0.822675,-2.14627,-1.71566,-0.913601,0.632022,-2.81767,0
-2.18248,-1.35236,2.86414,0.228528,-0.917935,2.41107,0
2.38313,1.59017,-1.00736,-0.073658,2.72576,3.00067,1
1.23795,2.7948,-1.20403,0.275809,0.48463,1.2903,1
-2.37697,-2.78575,-0.425659,1.21126,0.45499,0.844342,0
1.22242,2.10324,1.87082,-1.28762,-2.61407,2.80608,1
-0.567582,0.1439,3.02145,2.16355,-2.6468,-2.44575,1
-0.939786,2.22388,0.230628,-1.25402,3.01128,2.6695,1
-1.21204,2.79443,0.040761,1.33129,-2.65058,-1.7705,0
0.690769,-2.93804,2.69909,1.38419,-0.10021,-1.23816,1
-0.925382,-1.07053,-0.71573,-1.64996,-0.66033,-1.29297,1
-2.06142,-0.817971,1.06627,-2.33028,-1.83174,-0.0423462,0
0.135153,-1.71507,1.80901,-2.20977,-3.05045,2.7349,0
1.28049,0.071905,0.0170597,-0.605689,-0.023087,-2.76482,0
-2.22642,-0.114504,0.524054,0.0548838,-2.701,-1.70821,0
3.07858,-1.04915,-3.05185,0.169423,1.15092,0.582988,0
1.83664,-2.3977,1.83044,0.47884,-2.39925,0.0926652,1
-1.69131,-0.456937,1.16402,-0.241914,-2.6953,0.464514,1
-2.24733,-0.728836,-1.91947,-0.911979,2.96154,1.12244,1
-0.900307,1.55093,0.135482,2.11373,1.22171,1.62534,0
1.03365,-2.85395,-3.0655,-2.24392,2.68879,2.14365,1
2.93595,1.47478,1.54895,-0.993044,1.92864,-2.78482,1
-2.28765,-1.65737,-0.564225,1.60881,1.58719,1.96379,1
1.25344,-3.06163,-0.297918,2.66796,2.35013,2.37473,0
-2.98971,2.71388,2.71893,-0.655699,1.17832,1.97431,1
-0.919476,0.117761,1.79964,0.970815,0.995,2.17485,1
-2.28005,-0.755969,-1.94646,0.92659,-2.73902,-3.05577,0
1.263,0.0106251,1.6175,0.08256,-2.57517,2.39376,1
1.29968,2.17812,2.53479,-0.827073,0.343865,2.76486,0
1.52219,1.85014,2.50529,1.32036,1.08712,-0.724527,1
1.66622,2.66864,1.81572,0.848911,2.65446,1.46073,1
-1.03346,2.47319,-0.812004,2.46559,-0.580693,1.19156,1
2.91675,1.37212,-0.49347,-2.41385,-2.78934,0.592337,0
-1.4801,2.40362,-1.36034,-2.00085,1.03988,-2.06636,1
2.15285,-2.23752,1.89218,0.24504,0.159014,2.83693,0
3.12244,0.658054,1.71065,2.6772,2.8037,-0.0898708,0
2.25881,1.34344,-3.01337,-3.06792,-2.1444,-1.84409,0
-2.71421,-0.950775,3.09125,-0.945177,-2.0331,-1.60592,1
-2.61829,-1.81168,3.0114,1.84,-2.13092,-1.04507,1
0.182802,-2.57862,-0.0292941,-2.4745,1.95786,-1.32925,1
-0.470775,-1.13809,-2.62273,0.688651,-1.8761,0.880296,0
2.04036,-0.956884,2.30238,-1.63837,2.80125,-0.400356,1
-0.0708843,-0.990655,0.000575765,0.0924746,-3.01943,-2.46277,0
-1.26807,2.59274,0.449266,1.76995,-1.14852,-2.07906,0
-1.04124,1.73097,2.41729,1.02218,1.98304,-0.238809,0
0.0272585,0.766022,-0.703593,0.0825335,1.58378,2.4299,1
0.587837,-0.822095,-0.690359,-3.05071,-0.407254,-0.341548,0
-3.01494,-0.599976,1.87443,1.55063,-1.38681,2.13889,0
-2.62436,1.23902,2.53101,1.99573,-2.4309,2.26243,0
-0.769334,1.57014,-2.79675,-2.51108,2.06883,2.34334,1
-2.30351,1.02224,-0.951831,0.530751,0.577631,-2.43053,1
-1.14622,-2.41834,-1.01729,-3.10258,-1.75204,1.16258,1
-1.68198,-0.620921,-0.834642,-1.88804,1.57367,2.4823,0
-1.89238,-1.5828,-2.81046,2.33186,-0.72479,-1.5282,1
2.71344,0.627427,0.267162,0.901962,-0.476676,2.63644,1
0.994952,3.11383,-2.5009,-2.70176,-1.68679,3.07842,0
-1.58871,-1.00883,-2.98966,-2.52786,-1.83362,1.28872,1
-1.11346,1.32284,-0.894308,-1.27313,0.702212,-3.13381,1
2.81823,1.13093,2.39528,-1.13726,1.85964,-1.83344,1
1.77132,0.0587094,-0.566831,2.85504,1.51283,-2.39298,1
-0.273637,-0.209323,1.97533,1.86298,0.229635,2.71795,0
1.84294,1.93011,1.65795,-1.00808,1.02216,0.729496,1
0.752291,-0.0540118,3.13561,0.169525,-0.132388,-1.71317,1
0.931754,0.416122,-2.74297,2.76644,1.00733,2.93292,1
1.77519,2.56341,-2.93982,1.22675,-0.113301,0.291594,1
-1.06252,1.55934,-2.1082,-0.149411,1.16022,-3.06283,1
-0.91116,0.00957868,0.739564,2.24,0.878631,0.229621,1
0.173373,-1.28632,-0.334491,1.90043,1.86711,1.75702,0
0.383912,1.55211,-2.69716,-2.64272,-2.35601,0.798302,0
2.04988,2.81528,-2.64525,-3.0235,-1.78656,-2.42515,1
-2.7905,2.33236,1.45222,2.94634,-0.821018,2.64141,1
-2.1943,-2.65833,-0.463764,1.71318,2.94532,-1.37185,0
0.166399,0.224723,-1.3762,0.409224,-0.863916,-1.09945,1
-0.188536,2.23852,2.1159,-0.110306,-0.618418,-1.78294,0
0.434734,-1.0462,-0.642939,-2.8882,-2.79009,1.93723,0
-2.86431,0.585219,-0.615663,-1.70933,-1.85564,0.258831,0
-3.12762,0.659883,3.11801,0.481603,1.78383,-0.864476,1
-2.21295,-1.43789,0.902175,-1.76009,-1.80166,-1.18235,1
-1.52222,1.84401,-0.767072,2.748,-1.11245,-1.89851,0
-1.19301,-0.0157536,-1.96421,2.84765,-0.234312,0.151702,1
-0.178012,2.08114,-0.637964,-0.642166,-3.10724,1.2025,0
-1.40163,2.55701,-2.22295,-0.0694231,-0.243829,2.86247,0
2.57538,-2.30657,-1.36476,1.42691,2.74452,-1.05165,1
-1.90927,-2.04241,0.177195,1.81907,1.84136,1.89825,1
2.79877,0.569568,-1.87661,-0.6789,0.842178,0.536741,0
1.43655,0.0116507,0.211722,-1.38278,-1.87929,-3.00235,0
1.67544,-2.56945,-1.85573,-2.46614,-1.39499,-1.59767,0
-1.97493,-2.18819,1.34088,-0.159191,-0.566343,-1.95713,1
-0.750957,-0.909915,2.6433,-0.341345,-0.767041,0.693975,0
3.03854,-2.2295,-2.4805,0.0732903,-2.2809,-2.51893,1
-0.417494,-0.716521,0.518207,1.20553,1.27706,-1.52212,0
1.69558,3.12421,-0.596481,-0.160644,2.62716,2.03905,0
3.00543,1.03001,-2.13656,0.78642,-1.59286,1.83765,1
-2.94227,2.85106,-1.96181,-2.15775,1.23033,-1.26763,1
2.60761,0.209556,-3.11493,-1.56384,-1.69372,-2.32168,1
-2.05325,1.05274,2.8719,-1.0063,-2.71172,-3.11568,1
2.69023,0.53035,-0.808212,0.111916,-0.660595,-1.03583,1
0.520669,-1.57231,-1.00654,1.97001,2.57575,0.0616795,0
-0.15183,-0.0322842,-2.10687,-2.53071,2.69329,1.37877,1
-2.42221,0.348597,-3.09644,0.504128,-1.07103,-0.801957,0
1.90749,1.79333,-0.877649,-3.13864,1.67378,-0.770476,1
-0.633678,0.718747,-2.42813,-1.58817,-1.58106,-1.60943,1
-0.646298,-1.47989,2.63814,2.15057,2.81786,0.335048,0
-2.53178,0.164595,0.330606,-2.24325,1.47782,-2.40281,1
-3.11605,-1.46214,-1.69116,-3.10806,0.405086,2.61749,0
0.951808,-0.51741,1.84884,0.918586,-2.31451,-1.14825,0
1.19276,2.8829,-0.786926,2.22365,-0.135722,2.92926,1
2.77211,1.90137,-0.75768,-2.45813,0.525488,-2.28507,0
1.04476,0.716489,1.50418,0.15658,-2.21399,2.9788,1
3.01187,0.0921789,0.475715,1.25443,-1.6331,0.044026,0
-2.51598,3.11097,0.365239,0.212832,2.71358,-2.99691,0
2.27404,0.481072,-0.549971,-0.33849,0.737167,2.93399,0
-3.05422,-2.45317,-1.21891,1.05024,-3.00552,1.84531,0
1.61406,2.21629,1.23005,0.616664,1.97668,-2.95856,1
-1.36238,1.7894,-0.334925,2.03938,0.813924,-1.62884,1
1.666,-1.35338,-0.236956,-0.498196,-2.28918,0.108505,1
1.47394,2.77806,0.293476,2.12842,-2.17404,2.70558,0
1.11804,-2.14108,-1.60974,-0.0852876,2.21536,0.0573408,0
-0.23981,1.73067,-0.604284,-2.67699,-1.18227,0.412645,0
3.12538,-2.84627,1.69574,0.82866,1.82454,1.04836,1
-2.87475,2.87175,-2.74949,-0.570269,-2.30823,-1.7766,0
-0.759533,-1.26594,3.01359,-1.94857,0.0613978,2.26503,1
0.958042,0.119512,1.31458,-1.48072,2.1682,1.14148,1
-1.20519,0.884299,-0.59388,-0.81538,0.72918,-0.284204,0
1.71957,2.51978,-1.38032,1.53231,-2.45925,-2.86583,0
-2.89442,0.568916,-2.72065,-1.21225,-0.575182,-1.67628,1
1.78636,-1.30789,0.207356,-2.77774,2.92869,0.150689,0
-0.767141,0.765995,-1.8709,-0.600478,1.20554,1.43737,0
-1.4039,2.78041,-1.71812,-0.770102,2.62173,-2.4979,0
-1.00159,1.48169,0.80792,2.01479,2.56848,2.19366,0
1.85889,-2.76045,-1.99148,2.09429,1.61824,-1.18042,1
-1.71248,1.86482,-1.09439,1.64405,-0.194007,1.4405,1
0.0983555,-1.42274,-2.16792,2.00914,-2.42007,0.714833,1
-3.05326,0.360473,-0.744553,0.303511,2.63113,-1.6849,0
3.09499,0.960845,-1.71159,0.0927626,2.42373,0.136803,0
-0.409402,-2.36089,0.790451,2.21519,1.71895,-1.71392,1
0.807819,2.74156,-2.7795,-0.321483,2.39362,-0.367277,0
2.3956,-0.530778,1.78953,0.434066,-0.287049,2.14782,1
1.53513,-2.01647,-2.08748,-1.12723,-1.45796,-0.265885,0
-2.08242,2.28105,0.852008,0.093399,-1.26937,0.266217,1
-1.46005,-2.13745,-0.576616,2.96289,2.33868,-2.08901,0
1.88489,-1.83067,2.63917,-3.06037,1.53687,-2.3159,0
-2.12289,-1.36838,-0.955021,-1.2175,2.60304,1.43681,0
0.515145,2.69245,-2.81442,2.51153,-3.08863,1.60842,0
0.290739,2.06661,-2.95435,1.10486,0.043362,-2.9856,1
0.364372,-1.99726,0.938501,0.678616,-2.94732,-0.844417,1
-0.781847,-1.0105,-2.02107,-3.03355,-2.07417,-2.29496,1
1.92849,1.57303,1.79091,2.94846,1.12227,-2.57789,0
-1.82799,-2.46756,0.430872,0.597861,-1.42579,1.42375,1
-0.837338,1.26228,-2.9158,-0.435327,0.222242,1.40948,0
0.378975,-1.80519,-2.14882,-0.0597951,-2.79539,1.41456,1
-0.362857,1.10557,2.33152,1.16673,-1.53953,-0.145249,0
0.0257786,2.00761,-2.19611,1.34112,-0.625569,0.576815,1
0.802946,0.624276,-2.31085,-1.73381,2.20666,-2.34772,1
1.53718,1.04062,0.909978,-2.967,1.6706,1.02988,0
2.51343,-2.71099,-0.481757,0.154787,-1.01154,-3.10094,0
-2.01108,1.73084,-1.56203,-2.54276,-1.90569,0.294109,0
0.541421,1.75542,0.778924,1.75496,1.62526,-1.79937,1
-2.90639,-2.02643,-2.52982,-1.85476,2.42945,0.194407,0
-0.554422,2.39775,-3.02263,-3.05534,1.17316,0.162476,1
1.22125,-1.10091,2.89476,1.88594,1.86371,-1.92698,1
0.31911,1.63271,-2.67612,1.18931,1.91885,0.70151,1
2.23394,-1.44288,-0.834094,0.0483556,0.188855,-2.96984,1
0.100785,-1.96976,-0.543326,1.0087,-2.40938,1.77123,0
2.22466,1.79022,-0.993178,1.21426,-2.8994,1.09356,1
-1.73426,-1.23013,2.78003,-0.740685,1.3329,2.55668,1
1.67311,-2.93465,2.39365,1.77225,-2.63799,2.2694,1
2.64001,1.43948,-2.65346,2.56149,-2.67667,-2.89464,1
1.42899,1.49416,-1.27924,1.86228,-0.910683,1.29529,1
1.17839,-0.642104,-2.47719,1.8126,-0.805191,1.4921,1
-0.662004,3.04545,-2.84618,1.03124,-1.52035,-0.262821,1
2.59279,0.99975,2.1274,2.12892,1.62777,-1.53873,1
1.11616,0.575909,-2.71728,2.65973,1.13157,-2.83757,1
0.143978,3.09262,2.18369,0.475961,2.99552,0.741924,1
2.52744,-0.663936,1.08049,0.514313,-0.263329,-0.928504,0
-2.59911,-1.76128,0.440659,-1.12065,2.62235,-2.37484,0
2.14412,1.93228,1.20326,1.29085,3.10372,-1.89629,0
-2.66526,-1.07784,-0.677498,2.3164,1.39721,-2.63425,1
-2.83575,2.38191,-0.713119,-2.38228,3.09062,0.781497,0
2.8694,-1.70796,-1.95144,-2.22075,-0.427431,1.03527,0
-1.40393,0.0482132,-0.605094,2.94292,-0.117008,2.72509,0
3.01234,-1.54976,2.30371,-0.767888,2.02032,-0.42841,1
2.10771,0.745059,0.936059,1.28141,-1.12001,-1.24205,0
0.715709,1.85425,1.02113,1.27542,2.28671,1.86193,0
2.15401,0.0315392,-0.46793,-1.86533,-1.35746,3.12703,0
2.8647,-0.656035,-1.68357,1.32681,1.03861,0.0218776,0
-0.234853,0.273281,2.57898,-1.26226,1.54618,-0.986902,1
1.13379,-1.18238,2.544,2.14315,2.02249,2.539,1
2.46072,3.01783,-0.727956,1.122,-0.738377,-2.71018,1
0.196803,0.37208,-1.23565,1.14237,0.752674,2.81283,0
-0.302926,2.50325,0.435781,2.65801,-1.62137,-1.52114,1
-1.41853,-1.67811,2.09437,1.90216,0.233213,-0.0949809,0
-3.0128,-2.62351,0.446227,-1.99,-2.36863,0.298732,1
3.13176,-1.78315,1.8152,1.97632,0.0833398,-2.75609,0
2.28436,2.30431,1.72116,-2.72334,-1.57792,-2.46865,1
-1.45054,1.02925,-3.04492,1.24829,1.83952,2.71171,1
2.37271,-0.199165,2.19406,-0.403273,2.04517,-0.342655,1
1.80835,2.60974,1.97488,2.83367,-2.82079,2.23283,0
-1.34453,-3.00815,-1.93004,1.94237,-2.08344,-1.86318,1
-2.99595,3.08198,-2.08359,-0.679703,1.08555,2.17127,1
1.41787,-2.89351,-1.8123,1.49593,-2.8579,0.915815,0
2.64914,2.39175,-1.34759,0.315351,2.54233,0.86498,1
-1.50599,-1.93521,-0.422663,0.869768,0.970139,2.15254,1
2.49523,-0.776328,-2.48494,1.35152,-2.07251,-1.60044,0
-1.16454,2.71812,1.03803,-2.17935,-1.91457,2.1577,1
-0.781291,-2.88692,2.03443,-2.5149,0.451909,-2.6467,0
-1.82805,0.19463,-1.08937,0.208907,0.572853,2.78855,0
2.72818,1.58515,-1.04321,0.305431,2.1344,0.534606,1
0.635971,2.82454,-0.0433211,2.67525,-2.88865,0.748161,1
-1.19184,2.36234,0.411533,-1.70098,-2.69536,-0.985107,0
1.95336,0.375225,1.73309,0.283734,-1.81266,0.0223088,0
2.1415,2.91466,1.01516,0.50472,-2.208,1.92374,1
-0.798756,-2.29264,-3.075,1.85907,-2.22775,1.23014,1
-2.71912,3.04866,0.869309,0.262581,-2.68511,0.209253,1
-3.0527,-2.43924,-1.09591,1.58965,-1.72085,2.50395,0
1.56961,2.66956,2.24762,0.480158,0.370077,0.178609,0
1.12709,2.88248,-1.94884,-0.257636,2.58752,0.80851,1
-1.15619,-2.61513,0.0284969,0.71432,-0.798645,2.95276,1
1.91665,2.76723,0.945268,-1.41289,-1.67086,2.43759,0
-0.319965,-1.76851,0.992064,1.03381,-1.11627,2.61273,1
1.01143,-2.11283,-2.21367,-1.37106,-1.78018,0.389304,0
-2.04228,-0.475693,-0.262748,0.149841,-0.955395,-2.19334,0
2.94231,-0.601326,1.27699,2.68649,-2.90325,2.83565,1
-0.981907,2.48916,-2.1887,-1.57694,0.421044,0.437723,0
-2.89896,2.55644,0.087995,2.24113,-1.05531,3.07061,1
1.84118,1.74096,0.314686,-0.983801,-2.78589,-2.13407,0
-2.92589,-1.86608,2.35441,3.08423,0.304556,-1.02061,1
0.115624,1.10711,-0.711238,-2.55667,1.42584,-1.41565,0
2.26579,-1.36691,-3.02582,-1.83981,-1.91416,-0.48321,0
1.11018,-2.34333,0.522538,-2.79632,-0.92366,1.05712,1
2.88958,-1.98054,-1.47112,0.561914,-2.05827,-2.32212,0
-1.9917,2.3106,-3.08777,1.05117,-2.7068,0.335709,1
-1.84607,0.20131,2.37986,-0.022991,0.980304,2.3701,1
0.616062,0.872383,2.31327,-0.672578,-2.99588,2.31962,1
-3.02569,-2.86594,-2.16981,-1.06276,0.0190159,-2.96116,1
3.12915,-2.01007,0.323083,-2.64896,2.71639,-2.46671,0
0.991198,2.11812,-1.23778,1.24093,-0.992577,-1.82372,0
2.67572,0.79567,-2.98469,2.73224,-2.27192,-1.29431,1
-2.90342,1.49536,0.4787,1.73584,2.52787,0.843732,1
-3.126,-1.84691,-2.28733,1.78953,2.97982,2.45513,1
-1.70076,-0.28617,-2.90215,-1.21934,1.89522,-2.83488,1
-2.16163,2.12709,1.59318,1.3136,2.66355,0.989511,1
0.499686,0.381836,-1.37809,-3.02277,2.88569,1.79612,1
-2.8231,1.6655,-1.17224,2.27298,-1.11469,-2.82567,0
-2.24791,2.90145,3.10174,0.535782,-1.85722,-0.808681,1
-0.746128,-2.02872,-0.139052,-1.91765,1.67189,1.69014,1
2.50695,-1.59167,-2.8632,1.81052,3.11645,-1.70132,0
2.21122,1.8332,-1.89527,0.383391,-1.6264,-2.99617,1
-2.46447,-0.93639,0.461599,-2.08022,-2.99716,-0.034396,1
2.76339,0.980643,2.29983,0.863197,-1.58475,-2.26759,0
2.91864,1.65704,-2.32065,0.951603,-3.07628,0.964069,1
2.54394,-0.972728,-1.9726,0.854972,-1.97626,-1.64878,1
2.00576,-2.39849,-0.28668,2.18307,1.39937,-1.13234,1
-2.87647,1.34857,0.77508,-0.768579,3.11145,-0.876331,1
-0.807971,-0.511618,-0.401158,2.52297,0.324318,-1.13145,1
-0.327284,-1.63737,1.35755,-1.10159,1.86996,0.33024,0
1.83647,1.40713,-2.8964,2.16511,-2.10067,-0.305735,0
0.0971937,-2.35616,1.62169,1.16189,2.19613,-1.68076,1
2.84022,-2.76019,2.23527,-1.36781,-0.399234,-0.945197,0
0.352529,-2.31983,-1.96324,2.04807,1.30951,-1.5891,0
-0.0278854,-2.04792,-2.09243,-2.39907,-0.955826,-1.6725,0
-2.24223,-0.998394,-2.62887,2.72209,-0.633445,0.822059,0
-0.436485,-2.50846,-1.57384,2.87309,2.55225,-0.168615,0
-1.82647,-3.07775,-1.19148,-0.588994,-1.02146,-0.44254,0
2.15056,0.125949,-0.0902091,0.269927,0.111215,1.79249,0
-1.08555,-0.713437,-2.04817,2.95723,-0.332003,-1.32509,0
0.0131031,0.0823904,2.82933,2.15229,2.04616,-2.36019,0
-1.92666,-0.790956,0.93523,0.418578,-1.1984,-0.128303,1
0.476001,2.11665,-3.01792,-1.15447,-1.12808,0.227492,1
-1.71414,1.10487,-2.09888,-3.06208,-1.38638,-1.36755,1
-2.06627,2.86877,-2.90578,-2.70528,0.420559,0.834764,1
0.238967,2.31824,1.65871,-1.65794,0.429555,-2.50759,1
-0.45834,-3.07755,0.404997,-2.95989,-0.801163,-0.366553,0
0.706125,0.874129,-2.86726,2.25532,2.62121,-0.696096,0
-3.11579,1.65586,-2.75412,2.64478,-0.655321,-2.30026,1
0.718265,-2.14679,-1.25932,-1.76503,-0.503773,1.80483,1
-2.47188,0.701623,-1.50474,0.309951,-1.72546,-1.23009,0
-1.7162,0.663648,0.19501,-0.842541,1.85373,-0.215104,1
-0.460501,0.00363696,0.713814,1.15581,-0.0672506,-0.0667447,1
1.65078,-2.93441,1.22007,2.07866,0.576343,-0.287496,1
-3.03282,-2.16398,-2.68469,2.61192,-1.44261,0.636121,1
-1.64784,-1.03805,-1.70952,-0.339019,0.714565,1.34949,1
0.552228,-0.698792,-1.30877,0.99286,0.323475,2.66758,0
0.106415,-1.67217,1.82446,-0.836408,-2.10666,2.02721,0
2.26384,3.03239,-0.961025,1.13193,0.150657,0.91697,0
0.617787,0.764083,-3.12569,-0.110873,2.0318,-1.29128,1
-3.09029,0.726282,1.34605,0.61915,1.09731,2.30047,1
0.0792737,2.15295,0.0136395,-1.71744,-1.71488,-2.58516,1
0.773114,2.96849,1.25288,2.30565,-0.0252141,0.813592,0
-2.84411,2.03882,1.13763,-1.07475,-2.72015,-1.22758,0
1.77342,2.24224,0.468983,0.242108,0.0469623,-1.59319,0
2.09336,2.5646,-1.69462,-2.96337,-0.505617,1.13747,1
0.940278,2.702,1.45398,-0.0333903,-1.01449,-0.682194,1
0.137171,1.54532,2.21648,1.35455,2.72093,2.09529,0
-0.301262,2.89977,0.574163,0.183687,2.60922,2.40607,1
2.62645,-2.14894,1.31543,-0.770899,-2.73185,-2.71163,0
1.19148,0.831214,0.618151,-0.81998,-2.36227,-0.542119,0
-2.75174,-0.802217,-2.39783,1.67358,-1.60082,-1.01965,0
0.529677,2.80235,-2.84252,0.49596,-1.79488,-2.82871,1
-2.8433,-1.90934,0.448482,1.61809,2.19088,2.70542,1
-1.57772,0.332441,-0.969072,-1.85862,1.68158,1.65648,1
-0.664635,0.758573,0.947945,-2.79521,1.77047,1.07958,1
1.11572,-0.36108,-0.991514,2.19894,-0.629982,-2.9728,0
-1.02142,0.0808231,-2.74937,-2.7857,2.91181,0.956795,0
-2.23703,-1.3443,2.72375,2.67676,0.0782589,1.77991,1
2.26861,3.01639,1.27273,-0.804861,-0.449525,-2.70013,0
2.54788,0.0743935,0.0270132,2.78747,-0.950516,1.52361,1
0.679025,-0.128785,2.90705,0.603881,2.48279,-2.52516,0
-2.90631,1.76583,1.54378,-0.343019,1.43149,-0.94144,1
-2.80936,-1.06405,0.561208,-2.66603,-2.12352,2.73824,1
1.83112,-2.19015,-2.97753,0.94848,2.95735,-2.87805,0
-2.87133,-2.9992,-0.104905,1.06316,2.4461,-0.183621,1
0.932169,-1.90399,2.32706,-1.49185,-3.07049,1.31443,0
-1.83051,2.53263,-0.690029,0.380875,1.08874,0.299993,0
1.99294,1.03798,-2.41237,-1.27008,-0.833639,-1.47886,0
1.87514,0.375248,0.356804,0.788268,-2.84065,-1.16023,0
-2.57224,-3.11511,-2.14133,1.1134,2.04421,0.984979,1
0.0962626,2.10619,-1.48851,3.04763,2.69744,-0.999577,0
-1.99506,-2.33851,1.0417,-2.25317,0.212205,-0.100406,1
2.66292,-0.796473,-2.38519,-1.66482,-2.87816,-1.2028,0
-2.65777,-1.29922,0.0462069,-1.92105,-2.61775,1.16254,0
2.94961,1.6793,2.50417,-1.75232,1.09262,-0.747439,0
-0.340482,-0.0737122,0.412957,-1.18619,-2.51818,-0.635175,1
-0.448895,2.93464,-0.39325,-0.531432,-0.88775,-0.206524,0
-1.68135,1.55795,1.11954,1.3018,-2.4173,2.33783,0
0.430151,-1.93901,-0.305927,1.5146,-3.04854,0.244633,1
-3.00546,2.83112,2.06623,0.470794,-1.86517,3.0024,1
0.00558933,-2.29308,0.643202,-0.256312,0.0588871,-1.23442,1
2.07171,1.85796,-1.04579,-2.69884,1.89981,0.55791,0
-2.9585,-1.15017,0.636529,0.234426,1.76433,0.572581,1
1.4144,0.0579999,0.502672,1.89007,0.905263,-1.36602,0
-1.0593,-2.21646,2.47755,-0.590032,1.85216,0.642358,0
-1.18556,-0.787798,1.73993,2.3043,-2.51483,-0.844188,0
1.45703,2.98439,2.70536,1.21433,-2.22358,-1.3743,0
0.168063,-2.90124,-0.052931,-1.9973,-0.0759742,2.03191,1
0.10534,1.44736,-1.99308,0.653898,-0.849864,2.13987,0
-1.52961,1.86018,2.27781,-2.09932,-1.51639,-1.79011,1
-2.6243,1.80798,-2.109,1.0815,-0.873796,-0.45479,0
0.305808,-0.608685,-1.29442,-0.969688,-1.77443,1.46904,1
-2.51657,-1.80732,-1.09552,0.426591,0.0400261,-2.29666,0
2.1423,0.349101,-1.70953,1.71266,-2.66225,1.34683,0
-1.28264,1.51315,2.08192,1.0057,1.66086,0.0535791,1
2.54784,-0.649739,-2.87512,-0.0628595,-2.63429,-0.518692,1
-1.66401,0.777345,-0.333883,-1.93531,-3.12781,0.159979,1
0.276204,0.449767,-1.39461,0.558811,0.795296,-1.28375,1
-1.88917,-1.72808,2.37546,-1.47318,-1.39725,-1.4334,0
-0.818606,-2.68281,1.99337,2.44094,0.0526971,0.857336,0
2.65422,0.0437661,1.94669,2.65991,1.75484,-2.44265,0
-2.91603,-0.551797,-1.25375,-3.12982,-1.60879,2.56904,1
-0.757714,-0.915857,1.54162,1.35341,1.21214,-2.64603,0
1.0062,-1.22318,0.197741,1.53163,0.136472,2.20878,0
2.69786,0.424198,0.978393,2.21089,-0.777822,1.02874,1
-1.10029,0.920551,1.86854,0.319531,1.74815,0.787322,0
1.63387,-1.45687,-2.36526,1.78427,-0.736246,1.1306,1
-0.430659,-2.17045,0.856031,2.46876,-1.40198,-0.376786,1
-2.09908,1.53205,-2.85587,3.10558,1.35377,-0.770125,0
-2.75012,2.80302,-2.66541,-1.34571,-0.834586,-1.86246,1
1.33389,-2.67236,-1.28619,-2.77701,0.349712,0.479346,1
-2.36331,-2.17636,-0.529697,0.607942,-2.31271,-0.00905271,0
0.0360148,-2.89672,2.64655,1.34193,-0.205539,2.47857,1
0.778206,-3.04733,1.77765,-1.05896,-3.10629,1.25548,1
-1.34667,-0.141073,0.710242,1.80803,-2.85054,0.647786,0
-0.638045,-2.73753,-1.16894,2.88841,-2.62578,1.77935,1
-0.933504,2.57874,2.04237,1.45348,0.0866493,2.52534,0
-2.80935,2.2227,1.19074,1.60425,2.10175,0.0167992,1
-2.53322,1.45709,0.896212,-2.3585,-0.0267134,-1.02295,0
0.522049,1.05995,-0.504425,-1.78474,1.96132,-1.77077,1
-2.99575,-3.11065,0.793448,2.23378,0.923585,-0.697285,0
-1.6624,-1.93553,-2.77948,-3.01809,-2.76329,1.76713,0
2.3775,-0.746928,2.81523,0.0953378,2.376,1.25666,1
2.66056,-1.35677,1.74457,-1.66274,1.02427,-0.313794,1
0.51576,0.686612,2.68128,-0.300578,0.755689,0.593122,0
-3.08839,-2.20148,0.681675,1.09612,1.3849,1.80489,1
1.1526,0.295103,1.26825,-0.279057,-1.73356,1.57213,0
0.991076,0.661573,1.14737,2.61645,0.742778,-2.64336,0
1.19643,1.44614,-2.00914,-2.57439,-1.33479,3.01939,0
-1.22181,-0.624716,0.261972,0.344219,-3.06069,-0.575563,1
2.23664,0.186344,0.31813,-2.80007,0.69082,-0.0708682,1
-0.593625,1.25516,-2.30242,1.49808,-2.41976,0.187615,0
2.8621,-1.04561,-2.51973,1.56306,-0.888373,2.78586,1
-1.23639,-0.141583,-2.46511,0.743519,-0.788737,1.9335,1
0.693434,0.971114,0.578172,2.82109,-0.369105,2.06418,0
-1.11413,-0.115662,-2.02769,1.41445,2.27475,2.77591,0
1.6756,0.141635,-2.28119,-2.90203,-1.63748,1.32819,1
2.83715,2.89964,-2.32706,2.68349,3.10062,1.98627,0
-0.9408,0.906917,0.512481,1.13378,-1.01306,-0.0387211,1
-0.334337,1.71216,1.4211,2.25683,-0.0033394,-3.05228,0
-1.5064,1.27304,-0.691472,2.59215,-2.00833,-1.9416,1
1.96046,1.48939,-2.65231,0.25295,-0.564552,0.409844,1
0.678858,-0.762059,2.26228,0.0878422,-2.26724,-1.12277,1
0.56786,1.8249,-3.08912,0.402454,3.04668,1.57618,0
2.74844,0.590485,-3.04326,-0.00946289,-0.0664504,2.74207,1
2.07312,-0.420535,1.2743,-0.146547,-0.619163,-2.21785,1
-3.11065,1.70673,0.110784,2.86004,-2.21368,-1.95805,0
1.9817,2.14817,-0.103358,-2.14992,-1.64537,-1.87912,1
2.38965,-1.52541,2.31855,-1.74174,0.26345,-0.990096,1
-1.30517,1.66726,0.957201,2.55775,0.962989,-3.03027,0
0.275477,-1.90481,-0.0352475,-1.95669,-0.584428,1.27377,1
1.02249,-2.17353,-1.5907,2.15243,-1.22358,-0.124148,0
1.42369,-1.31573,3.07558,-0.248167,-0.787278,-2.54771,0
1.0335,2.50342,-2.78405,-2.27862,-0.503223,1.07644,1
0.975419,-2.03973,1.13986,0.200519,-2.8472,2.83089,1
1.96508,1.04286,0.0803191,-1.00118,0.491908,-0.770758,0
-1.82986,-0.559336,-1.88735,-2.39068,-1.06375,1.00973,0
2.65147,-0.607193,2.36455,1.79287,0.335444,2.62976,0
-0.765397,2.94906,-0.697931,-0.946061,0.225555,2.91306,1
-2.6109,0.263922,-1.6107,0.184881,-1.71523,-1.7128,0
-2.61657,2.49515,2.9783,1.15683,-1.59089,-0.624879,1
1.3757,1.4808,2.97719,2.69338,0.98929,1.48529,1
-1.56653,2.76827,1.15547,0.325976,-0.85162,0.331221,1
1.36417,1.26062,-0.0835161,0.320218,1.05973,-2.38772,0
-2.59967,1.86449,-2.60767,-1.03173,-1.3224,-0.693824,0
0.651432,0.440675,0.570572,0.951803,-0.702859,2.37484,1
1.6414,-3.01209,-0.111599,2.9127,-0.964753,1.4214,0
1.18957,-0.0711453,-1.22679,2.75233,-1.54604,-2.08207,1
2.62431,-2.2653,1.89298,1.35263,2.00204,0.102776,0
0.831513,2.96866,-1.68111,-2.39594,0.111104,0.309624,0
2.33091,2.3029,2.0061,1.0111,1.08802,0.235797,0
0.733441,3.03683,-1.10222,-2.8853,-2.18223,2.08563,1
-1.30894,-0.370412,-1.288,-1.53292,1.56672,0.300371,0
1.2206,-0.695543,-0.814977,-2.19206,-0.167448,-0.81781,0
0.817888,1.20439,-1.98423,-0.22512,0.511927,0.553836,0
2.30964,-1.40221,1.74486,1.7529,-2.87435,-2.11847,0
-0.925556,1.25349,-1.60435,2.80542,-1.47371,-2.31034,1
-0.764938,-1.2899,3.00551,-2.64289,-2.96198,2.07302,0
0.751392,-0.391211,2.86295,0.669234,-0.196567,1.56663,1
-0.38176,-1.06053,-0.0849705,1.12395,-2.69546,-2.02831,1
-1.96805,0.418997,-2.72741,-1.40148,1.41283,1.76648,1
-0.928397,1.3576,-1.66417,-0.500861,3.04761,-0.3196,1
2.8292,-2.72185,1.88676,0.182958,-2.02708,-2.20088,1
-0.30265,2.916,2.80109,0.164499,0.725586,-1.41042,1
-0.669847,1.00094,1.8798,1.90559,-1.28821,0.915831,1
0.786255,1.13919,-0.875735,-2.72739,-0.0279059,2.07822,1
-2.43611,1.73434,-2.20802,-2.09066,3.11084,2.64627,0
2.03242,2.84969,1.26456,3.01843,-1.82249,-1.40688,1
2.94924,-1.82716,-0.792817,0.954437,0.821218,-2.7658,1
0.348635,1.65543,1.92314,1.60844,-1.40635,-0.607407,0
0.819535,2.48825,2.9467,-0.505248,0.942486,1.07926,1
-2.41859,-1.84393,-1.70769,-2.13217,2.49532,2.04236,1
-1.52977,0.966035,-2.18833,-2.74964,1.53631,-3.042,0
-2.76327,2.50126,-0.750506,-0.60056,0.333448,-2.1073,1
-1.42936,-1.38424,2.42727,-2.5579,-0.288111,-1.04662,0
-2.27514,-2.12774,2.49615,-0.197092,0.722299,0.280828,0
-3.05877,1.97341,-1.1781,-2.85304,-1.24001,-1.44757,1
-2.9261,1.47315,-0.679017,1.72079,0.554286,1.49394,1
-0.0317704,0.40607,-2.05168,1.53326,-2.02772,-2.83883,1
2.48426,-2.39065,1.41955,2.22677,-2.18306,0.933626,0
2.48102,0.533148,0.869023,1.55007,3.1381,0.812427,0
-0.636943,2.49488,-2.7662,-0.387951,-0.980983,2.3274,1
3.13119,1.79351,-0.331785,-0.432662,2.31997,2.64049,1
-1.16071,-1.89585,-1.15326,-0.156918,-0.988343,-1.42032,1
1.49294,-0.173585,-0.942915,-3.01479,-1.66774,0.602016,0
2.40711,1.85677,-1.9975,2.75034,-1.72731,1.88257,0
2.15581,1.53848,-1.91117,1.58588,-2.67492,-1.49618,1
-2.20373,-0.970979,0.864045,1.97649,-0.352837,2.07875,1
2.52103,-1.6984,-0.844437,-1.9405,2.28131,1.70144,1
-1.17153,-3.03053,1.35102,2.53358,-2.65691,1.24168,0
-1.03031,-0.54241,2.15213,-3.09398,1.08297,-3.11806,0
-0.679659,1.80419,0.333081,2.05099,2.08181,0.862808,0
-0.925774,2.16268,1.70913,-1.04367,1.06238,1.01969,1
0.696379,-2.37507,-1.88222,1.03219,-2.19422,-1.94006,0
-1.9062,-2.55063,-0.0368063,-2.99708,0.774434,-1.50575,1
-1.52975,0.522861,0.0307929,-0.277554,2.22755,-2.99144,0
-3.09773,0.567376,-1.50897,-1.31239,-2.49231,-2.77909,0
-2.53021,-1.13468,-0.450178,0.495559,0.40285,-2.50105,0
-0.914807,0.293803,0.78046,2.65919,2.83318,-2.77067,0
-0.114375,-2.11157,-1.99387,-0.328345,0.761804,-2.78109,1
1.66337,-2.78591,-1.25223,-2.87367,-1.88909,1.84593,0
0.315239,-0.673386,-1.34478,1.27439,-0.0569027,0.683524,1
2.99324,0.180895,1.16871,2.10429,1.62803,-0.917366,1
2.68968,0.115225,-1.85777,1.1921,1.98227,1.49916,0
0.654468,-0.600729,1.66876,1.05972,0.232468,1.53908,0
-1.98536,2.04827,-1.20583,1.76095,1.68542,-0.318017,0
2.57405,2.56939,1.12412,1.4821,0.890741,1.76054,0
0.886751,1.40467,0.609275,2.85171,-2.93353,2.88012,1
-2.37928,2.83635,2.57332,-1.54102,0.0651901,1.56347,1
0.358786,0.642249,1.16504,1.03459,1.899,-0.320431,0
-1.74706,0.45033,1.57392,-0.905423,-0.891072,-0.475833,0
-0.973795,2.21188,-2.66217,-1.56542,2.95476,0.613768,1
0.464186,2.99086,-0.75345,0.835967,1.66844,-2.01079,1
0.376754,1.46434,-0.593804,1.59213,-2.00538,1.68725,0
